; Hairbrush Dual-Airbrush Plotter G-code
; Generated by Hairbrush
G90 ; Set absolute positioning
G21 ; Set units to millimeters
G28 ; Home all axes
M84 S0 ; Disable stepper timeout

; SVG file: drawing_test.svg
; Layer: All layers
; Paths: 8
; Z height: 2.0mm
; Feedrate: 1500mm/min
; Simplification: No

; Path 1 (id: path1)
G0 Z7.000 F1500
G0 X56.565 Y79.942 F1500
M42 P0 S1
G1 Z2.000 F1500
M280 P0 S90
G1 X62.806 Y83.421 F1500
G1 F1500
G1 X59.498 Y86.112 F1500
G1 X56.565 Y79.942 F1500
M280 P0 S0
G0 Z7.000 F1500
M42 P0 S0

; Path 2 (id: path2)
G0 F1500
G0 X117.994 Y64.972 F1500
M42 P0 S1
G1 Z2.000 F1500
M280 P0 S90
G1 X108.186 Y56.980 F1500
G1 F1500
G1 X86.574 Y59.931 F1500
G1 X117.994 Y64.972 F1500
M280 P0 S0
G0 Z7.000 F1500
M42 P0 S0

; Path 3 (id: path3)
G0 F1500
G0 X46.428 Y174.144 F1500
M42 P0 S1
G1 Z2.000 F1500
M280 P0 S90
G1 X52.866 Y177.600 F1500
G1 F1500
G1 X46.155 Y182.245 F1500
G1 X46.428 Y174.144 F1500
M280 P0 S0
G0 Z7.000 F1500
M42 P0 S0

; Path 4 (id: path4)
G0 F1500
G0 X151.818 Y62.946 F1500
M42 P0 S1
G1 Z2.000 F1500
M280 P0 S90
G1 X157.392 Y68.036 F1500
G1 F1500
G1 X157.757 Y68.060 F1500
G1 X151.818 Y62.946 F1500
M280 P0 S0
G0 Z7.000 F1500
M42 P0 S0

; Path 5 (id: path5)
G0 F1500
G0 X75.220 Y111.427 F1500
M42 P0 S1
G1 Z2.000 F1500
M280 P0 S90
G1 X81.033 Y116.113 F1500
G1 F1500
G1 X82.632 Y113.867 F1500
G1 X75.220 Y111.427 F1500
M280 P0 S0
G0 Z7.000 F1500
M42 P0 S0

; Path 6 (id: path6)
G0 F1500
G0 X68.513 Y120.698 F1500
M42 P0 S1
G1 Z2.000 F1500
M280 P0 S90
G1 X74.570 Y125.031 F1500
G1 F1500
G1 X75.217 Y122.167 F1500
G1 X68.513 Y120.698 F1500
M280 P0 S0
G0 Z7.000 F1500
M42 P0 S0

; Path 7 (id: path7)
G0 F1500
G0 X65.548 Y131.390 F1500
M42 P0 S1
G1 Z2.000 F1500
M280 P0 S90
G1 X71.875 Y134.990 F1500
G1 F1500
G1 X70.632 Y132.682 F1500
G1 X65.548 Y131.390 F1500
M280 P0 S0
G0 Z7.000 F1500
M42 P0 S0

; Path 8 (id: path8)
G0 F1500
G0 X118.273 Y104.851 F1500
M42 P0 S1
G1 Z2.000 F1500
M280 P0 S90
G1 X112.638 Y101.061 F1500
G1 F1500
G1 X112.364 Y94.222 F1500
G1 X118.273 Y104.851 F1500
M280 P0 S0
G0 Z7.000 F1500
M42 P0 S0


; End of G-code
G0 Z10 ; Raise Z
G0 X0 Y0 ; Return to origin
M84 ; Disable motors