; SVG viewBox: (0.0, 0.0, 210.0, 297.0)
; SVG width: 744.09447
; SVG height: 1052.362179
; Scale factor: 3.543307
; User scale factor: 1.0
; User offset: X0.000 Y0.000
; Hairbrush Dual-Airbrush Plotter G-code
; Generated by Hairbrush
G90 ; Set absolute positioning
G21 ; Set units to millimeters
G28 ; Home all axes
M84 S0 ; Disable stepper timeout

; SVG file: drawing_test.svg
; Layer: All layers
; Paths: 8
; Base Z height: 2.0mm
; Base feedrate: 1500mm/min
; Simplification: No
; Curve resolution: 20
; Debug markers: Yes

; Path 1/8 (id: path1)
; STROKE: color=#000000, width=0.54mm, opacity=1.00
; AIRBRUSH: z=1.00mm, flow=1.00, feedrate=300mm/min
; PAINT_FLOW:1.00
G0 Z6.000 F299.99999999999994
; Path start
G0 X200.429 Y769.104 F299.99999999999994
G1 Z1.000 F299.99999999999994
M280 P0 S90
G1 X201.140 Y769.984 F299.99999999999994
G1 X201.866 Y770.845 F299.99999999999994
G1 X202.606 Y771.687 F299.99999999999994
G1 X203.359 Y772.510 F299.99999999999994
G1 X204.125 Y773.314 F299.99999999999994
G1 X204.903 Y774.100 F299.99999999999994
G1 X205.692 Y774.867 F299.99999999999994
G1 X206.492 Y775.616 F299.99999999999994
G1 X207.302 Y776.347 F299.99999999999994
G1 X208.121 Y777.061 F299.99999999999994
G1 X208.950 Y777.757 F299.99999999999994
G1 X209.787 Y778.436 F299.99999999999994
G1 X210.631 Y779.098 F299.99999999999994
G1 X211.483 Y779.744 F299.99999999999994
G1 X212.341 Y780.374 F299.99999999999994
G1 X213.205 Y780.987 F299.99999999999994
G1 X214.074 Y781.584 F299.99999999999994
G1 X214.948 Y782.166 F299.99999999999994
G1 X215.826 Y782.733 F299.99999999999994
G1 X216.708 Y783.284 F299.99999999999994
G1 X217.102 Y783.524 F299.99999999999994
G1 X217.497 Y783.761 F299.99999999999994
G1 X217.893 Y783.994 F299.99999999999994
G1 X218.291 Y784.224 F299.99999999999994
G1 X218.689 Y784.451 F299.99999999999994
G1 X219.088 Y784.676 F299.99999999999994
G1 X219.488 Y784.898 F299.99999999999994
G1 X219.889 Y785.119 F299.99999999999994
G1 X220.290 Y785.337 F299.99999999999994
G1 X220.692 Y785.555 F299.99999999999994
G1 X221.094 Y785.771 F299.99999999999994
G1 X221.496 Y785.987 F299.99999999999994
G1 X221.899 Y786.203 F299.99999999999994
G1 X222.301 Y786.418 F299.99999999999994
G1 X222.704 Y786.633 F299.99999999999994
G1 X223.106 Y786.849 F299.99999999999994
G1 X223.508 Y787.066 F299.99999999999994
G1 X223.909 Y787.284 F299.99999999999994
G1 X224.311 Y787.503 F299.99999999999994
G1 X224.711 Y787.724 F299.99999999999994
G1 X226.033 Y788.349 F299.99999999999994
G1 X227.358 Y788.967 F299.99999999999994
G1 X228.686 Y789.578 F299.99999999999994
G1 X230.016 Y790.180 F299.99999999999994
G1 X231.349 Y790.773 F299.99999999999994
G1 X232.684 Y791.356 F299.99999999999994
G1 X234.022 Y791.929 F299.99999999999994
G1 X235.363 Y792.491 F299.99999999999994
G1 X236.707 Y793.042 F299.99999999999994
G1 X238.054 Y793.580 F299.99999999999994
G1 X239.403 Y794.106 F299.99999999999994
G1 X240.755 Y794.618 F299.99999999999994
G1 X242.111 Y795.116 F299.99999999999994
G1 X243.469 Y795.600 F299.99999999999994
G1 X244.830 Y796.068 F299.99999999999994
G1 X246.194 Y796.521 F299.99999999999994
G1 X247.562 Y796.957 F299.99999999999994
G1 X248.932 Y797.376 F299.99999999999994
G1 X250.306 Y797.776 F299.99999999999994
G1 X251.682 Y798.159 F299.99999999999994
G1 X252.403 Y798.352 F299.99999999999994
G1 X253.130 Y798.540 F299.99999999999994
G1 X253.861 Y798.723 F299.99999999999994
G1 X254.597 Y798.900 F299.99999999999994
G1 X255.336 Y799.071 F299.99999999999994
G1 X256.080 Y799.234 F299.99999999999994
G1 X256.826 Y799.389 F299.99999999999994
G1 X257.574 Y799.536 F299.99999999999994
G1 X258.325 Y799.674 F299.99999999999994
G1 X259.077 Y799.801 F299.99999999999994
G1 X259.830 Y799.918 F299.99999999999994
G1 X260.583 Y800.022 F299.99999999999994
G1 X261.337 Y800.115 F299.99999999999994
G1 X262.090 Y800.195 F299.99999999999994
G1 X262.843 Y800.261 F299.99999999999994
G1 X263.594 Y800.313 F299.99999999999994
G1 X264.343 Y800.349 F299.99999999999994
G1 X265.089 Y800.370 F299.99999999999994
G1 X265.833 Y800.374 F299.99999999999994
G1 X266.574 Y800.361 F299.99999999999994
G1 X266.876 Y800.349 F299.99999999999994
G1 X267.178 Y800.330 F299.99999999999994
G1 X267.479 Y800.306 F299.99999999999994
G1 X267.780 Y800.277 F299.99999999999994
G1 X268.081 Y800.242 F299.99999999999994
G1 X268.382 Y800.204 F299.99999999999994
G1 X268.683 Y800.162 F299.99999999999994
G1 X268.983 Y800.116 F299.99999999999994
G1 X269.283 Y800.068 F299.99999999999994
G1 X269.583 Y800.017 F299.99999999999994
G1 X269.883 Y799.965 F299.99999999999994
G1 X270.183 Y799.912 F299.99999999999994
G1 X270.483 Y799.857 F299.99999999999994
G1 X270.783 Y799.803 F299.99999999999994
G1 X271.083 Y799.749 F299.99999999999994
G1 X271.383 Y799.696 F299.99999999999994
G1 X271.683 Y799.644 F299.99999999999994
G1 X271.983 Y799.595 F299.99999999999994
G1 X272.283 Y799.547 F299.99999999999994
G1 X272.584 Y799.503 F299.99999999999994
G1 X272.305 Y799.954 F299.99999999999994
G1 X272.279 Y800.194 F299.99999999999994
G1 X272.478 Y800.246 F299.99999999999994
G1 X272.874 Y800.130 F299.99999999999994
G1 X273.436 Y799.870 F299.99999999999994
G1 X274.137 Y799.486 F299.99999999999994
G1 X274.949 Y799.001 F299.99999999999994
G1 X275.841 Y798.435 F299.99999999999994
G1 X276.787 Y797.812 F299.99999999999994
G1 X277.756 Y797.152 F299.99999999999994
G1 X278.721 Y796.478 F299.99999999999994
G1 X279.653 Y795.812 F299.99999999999994
G1 X280.523 Y795.174 F299.99999999999994
G1 X281.303 Y794.587 F299.99999999999994
G1 X281.963 Y794.073 F299.99999999999994
G1 X282.476 Y793.653 F299.99999999999994
G1 X282.812 Y793.349 F299.99999999999994
G1 X282.943 Y793.183 F299.99999999999994
G1 X282.840 Y793.177 F299.99999999999994
G1 X282.475 Y793.353 F299.99999999999994
G1 X281.734 Y793.776 F299.99999999999994
G1 X281.003 Y794.236 F299.99999999999994
G1 X280.281 Y794.728 F299.99999999999994
G1 X279.565 Y795.245 F299.99999999999994
G1 X278.854 Y795.782 F299.99999999999994
G1 X278.147 Y796.333 F299.99999999999994
G1 X277.443 Y796.894 F299.99999999999994
G1 X276.740 Y797.458 F299.99999999999994
G1 X276.038 Y798.019 F299.99999999999994
G1 X275.334 Y798.573 F299.99999999999994
G1 X274.627 Y799.114 F299.99999999999994
G1 X273.916 Y799.636 F299.99999999999994
G1 X273.200 Y800.133 F299.99999999999994
G1 X272.477 Y800.600 F299.99999999999994
G1 X271.746 Y801.032 F299.99999999999994
G1 X271.005 Y801.422 F299.99999999999994
G1 X270.254 Y801.766 F299.99999999999994
G1 X269.490 Y802.057 F299.99999999999994
G1 X268.714 Y802.291 F299.99999999999994
G1 X267.922 Y802.461 F299.99999999999994
G1 X267.614 Y802.482 F299.99999999999994
G1 X267.420 Y802.425 F299.99999999999994
G1 X267.331 Y802.295 F299.99999999999994
G1 X267.337 Y802.100 F299.99999999999994
G1 X267.430 Y801.844 F299.99999999999994
G1 X267.598 Y801.534 F299.99999999999994
G1 X267.834 Y801.177 F299.99999999999994
G1 X268.128 Y800.778 F299.99999999999994
G1 X268.469 Y800.345 F299.99999999999994
G1 X268.850 Y799.882 F299.99999999999994
G1 X269.259 Y799.396 F299.99999999999994
G1 X269.689 Y798.894 F299.99999999999994
G1 X270.129 Y798.381 F299.99999999999994
G1 X270.570 Y797.864 F299.99999999999994
G1 X271.002 Y797.349 F299.99999999999994
G1 X271.417 Y796.841 F299.99999999999994
G1 X271.804 Y796.349 F299.99999999999994
G1 X272.155 Y795.877 F299.99999999999994
G1 X272.459 Y795.431 F299.99999999999994
G1 X272.708 Y795.018 F299.99999999999994
G1 X273.246 Y794.032 F299.99999999999994
G1 X273.745 Y793.089 F299.99999999999994
G1 X274.210 Y792.183 F299.99999999999994
G1 X274.643 Y791.309 F299.99999999999994
G1 X275.048 Y790.463 F299.99999999999994
G1 X275.429 Y789.637 F299.99999999999994
G1 X275.788 Y788.828 F299.99999999999994
G1 X276.130 Y788.029 F299.99999999999994
G1 X276.457 Y787.235 F299.99999999999994
G1 X276.773 Y786.441 F299.99999999999994
G1 X277.081 Y785.641 F299.99999999999994
G1 X277.385 Y784.831 F299.99999999999994
G1 X277.688 Y784.004 F299.99999999999994
G1 X277.994 Y783.155 F299.99999999999994
G1 X278.306 Y782.280 F299.99999999999994
G1 X278.627 Y781.371 F299.99999999999994
G1 X278.961 Y780.425 F299.99999999999994
G1 X279.311 Y779.436 F299.99999999999994
G1 X279.680 Y778.397 F299.99999999999994
G1 X280.073 Y777.305 F299.99999999999994
G1 X280.843 Y774.576 F299.99999999999994
G1 X281.547 Y771.827 F299.99999999999994
G1 X282.186 Y769.061 F299.99999999999994
G1 X282.761 Y766.279 F299.99999999999994
G1 X283.274 Y763.482 F299.99999999999994
G1 X283.727 Y760.671 F299.99999999999994
G1 X284.122 Y757.847 F299.99999999999994
G1 X284.459 Y755.012 F299.99999999999994
G1 X284.741 Y752.167 F299.99999999999994
G1 X284.969 Y749.313 F299.99999999999994
G1 X285.144 Y746.450 F299.99999999999994
G1 X285.269 Y743.582 F299.99999999999994
G1 X285.344 Y740.708 F299.99999999999994
G1 X285.372 Y737.829 F299.99999999999994
G1 X285.354 Y734.948 F299.99999999999994
G1 X285.291 Y732.065 F299.99999999999994
G1 X285.185 Y729.182 F299.99999999999994
G1 X285.039 Y726.299 F299.99999999999994
G1 X284.852 Y723.418 F299.99999999999994
G1 X284.627 Y720.540 F299.99999999999994
G1 X284.582 Y720.018 F299.99999999999994
G1 X284.534 Y719.496 F299.99999999999994
G1 X284.484 Y718.975 F299.99999999999994
G1 X284.433 Y718.454 F299.99999999999994
G1 X284.379 Y717.933 F299.99999999999994
G1 X284.324 Y717.413 F299.99999999999994
G1 X284.268 Y716.893 F299.99999999999994
G1 X284.210 Y716.373 F299.99999999999994
G1 X284.152 Y715.853 F299.99999999999994
G1 X284.092 Y715.333 F299.99999999999994
G1 X284.032 Y714.814 F299.99999999999994
G1 X283.972 Y714.294 F299.99999999999994
G1 X283.911 Y713.775 F299.99999999999994
G1 X283.851 Y713.255 F299.99999999999994
G1 X283.790 Y712.736 F299.99999999999994
G1 X283.730 Y712.216 F299.99999999999994
G1 X283.670 Y711.697 F299.99999999999994
G1 X283.611 Y711.177 F299.99999999999994
G1 X283.552 Y710.657 F299.99999999999994
G1 X283.495 Y710.137 F299.99999999999994
G1 X283.132 Y707.795 F299.99999999999994
G1 X282.769 Y705.447 F299.99999999999994
G1 X282.404 Y703.094 F299.99999999999994
G1 X282.033 Y700.739 F299.99999999999994
G1 X281.654 Y698.384 F299.99999999999994
G1 X281.265 Y696.029 F299.99999999999994
G1 X280.862 Y693.677 F299.99999999999994
G1 X280.444 Y691.329 F299.99999999999994
G1 X280.007 Y688.988 F299.99999999999994
G1 X279.549 Y686.655 F299.99999999999994
G1 X279.067 Y684.331 F299.99999999999994
G1 X278.558 Y682.019 F299.99999999999994
G1 X278.021 Y679.720 F299.99999999999994
G1 X277.451 Y677.436 F299.99999999999994
G1 X276.847 Y675.168 F299.99999999999994
G1 X276.206 Y672.919 F299.99999999999994
G1 X275.526 Y670.690 F299.99999999999994
G1 X274.802 Y668.483 F299.99999999999994
G1 X274.034 Y666.300 F299.99999999999994
G1 X273.218 Y664.142 F299.99999999999994
G1 X273.045 Y663.708 F299.99999999999994
G1 X272.869 Y663.275 F299.99999999999994
G1 X272.690 Y662.846 F299.99999999999994
G1 X272.508 Y662.418 F299.99999999999994
G1 X272.323 Y661.992 F299.99999999999994
G1 X272.136 Y661.568 F299.99999999999994
G1 X271.946 Y661.145 F299.99999999999994
G1 X271.756 Y660.724 F299.99999999999994
G1 X271.563 Y660.303 F299.99999999999994
G1 X271.369 Y659.884 F299.99999999999994
G1 X271.175 Y659.465 F299.99999999999994
G1 X270.980 Y659.047 F299.99999999999994
G1 X270.784 Y658.629 F299.99999999999994
G1 X270.588 Y658.211 F299.99999999999994
G1 X270.393 Y657.793 F299.99999999999994
G1 X270.198 Y657.374 F299.99999999999994
G1 X270.003 Y656.955 F299.99999999999994
G1 X269.810 Y656.535 F299.99999999999994
G1 X269.618 Y656.115 F299.99999999999994
G1 X269.427 Y655.693 F299.99999999999994
G1 X268.646 Y654.125 F299.99999999999994
G1 X267.836 Y652.590 F299.99999999999994
G1 X266.998 Y651.084 F299.99999999999994
G1 X266.135 Y649.607 F299.99999999999994
G1 X265.250 Y648.155 F299.99999999999994
G1 X264.344 Y646.726 F299.99999999999994
G1 X263.419 Y645.318 F299.99999999999994
G1 X262.478 Y643.927 F299.99999999999994
G1 X261.523 Y642.553 F299.99999999999994
G1 X260.556 Y641.192 F299.99999999999994
G1 X259.579 Y639.842 F299.99999999999994
G1 X258.594 Y638.501 F299.99999999999994
G1 X257.603 Y637.166 F299.99999999999994
G1 X256.610 Y635.836 F299.99999999999994
G1 X255.615 Y634.506 F299.99999999999994
G1 X254.620 Y633.176 F299.99999999999994
G1 X253.629 Y631.842 F299.99999999999994
G1 X252.643 Y630.503 F299.99999999999994
G1 X251.665 Y629.156 F299.99999999999994
G1 X250.696 Y627.799 F299.99999999999994
G1 X249.966 Y626.765 F299.99999999999994
G1 X249.314 Y625.837 F299.99999999999994
G1 X248.732 Y625.004 F299.99999999999994
G1 X248.211 Y624.252 F299.99999999999994
G1 X247.744 Y623.570 F299.99999999999994
G1 X247.322 Y622.946 F299.99999999999994
G1 X246.937 Y622.367 F299.99999999999994
G1 X246.582 Y621.821 F299.99999999999994
G1 X246.247 Y621.296 F299.99999999999994
G1 X245.926 Y620.780 F299.99999999999994
G1 X245.609 Y620.261 F299.99999999999994
G1 X245.289 Y619.726 F299.99999999999994
G1 X244.958 Y619.163 F299.99999999999994
G1 X244.607 Y618.561 F299.99999999999994
G1 X244.229 Y617.906 F299.99999999999994
G1 X243.815 Y617.187 F299.99999999999994
G1 X243.357 Y616.392 F299.99999999999994
G1 X242.848 Y615.509 F299.99999999999994
G1 X242.279 Y614.524 F299.99999999999994
G1 X241.641 Y613.427 F299.99999999999994
G1 X241.488 Y613.040 F299.99999999999994
G1 X241.333 Y612.655 F299.99999999999994
G1 X241.175 Y612.271 F299.99999999999994
G1 X241.015 Y611.888 F299.99999999999994
G1 X240.855 Y611.505 F299.99999999999994
G1 X240.693 Y611.124 F299.99999999999994
G1 X240.531 Y610.742 F299.99999999999994
G1 X240.370 Y610.360 F299.99999999999994
G1 X240.209 Y609.978 F299.99999999999994
G1 X240.049 Y609.596 F299.99999999999994
G1 X239.890 Y609.212 F299.99999999999994
G1 X239.734 Y608.827 F299.99999999999994
G1 X239.580 Y608.441 F299.99999999999994
G1 X239.429 Y608.053 F299.99999999999994
G1 X239.281 Y607.663 F299.99999999999994
G1 X239.138 Y607.271 F299.99999999999994
G1 X238.998 Y606.876 F299.99999999999994
G1 X238.864 Y606.478 F299.99999999999994
G1 X238.734 Y606.078 F299.99999999999994
G1 X238.610 Y605.674 F299.99999999999994
G1 X238.281 Y604.515 F299.99999999999994
G1 X237.979 Y603.343 F299.99999999999994
G1 X237.704 Y602.159 F299.99999999999994
G1 X237.455 Y600.964 F299.99999999999994
G1 X237.235 Y599.760 F299.99999999999994
G1 X237.042 Y598.547 F299.99999999999994
G1 X236.877 Y597.328 F299.99999999999994
G1 X236.740 Y596.102 F299.99999999999994
G1 X236.631 Y594.871 F299.99999999999994
G1 X236.552 Y593.637 F299.99999999999994
G1 X236.501 Y592.401 F299.99999999999994
G1 X236.479 Y591.163 F299.99999999999994
G1 X236.487 Y589.925 F299.99999999999994
G1 X236.524 Y588.689 F299.99999999999994
G1 X236.591 Y587.454 F299.99999999999994
G1 X236.688 Y586.223 F299.99999999999994
G1 X236.815 Y584.997 F299.99999999999994
G1 X236.973 Y583.777 F299.99999999999994
G1 X237.161 Y582.564 F299.99999999999994
G1 X237.381 Y581.358 F299.99999999999994
G1 X237.588 Y580.338 F299.99999999999994
G1 X237.797 Y579.388 F299.99999999999994
G1 X238.008 Y578.501 F299.99999999999994
G1 X238.223 Y577.671 F299.99999999999994
G1 X238.443 Y576.889 F299.99999999999994
G1 X238.668 Y576.150 F299.99999999999994
G1 X238.901 Y575.445 F299.99999999999994
G1 X239.141 Y574.768 F299.99999999999994
G1 X239.391 Y574.111 F299.99999999999994
G1 X239.651 Y573.468 F299.99999999999994
G1 X239.923 Y572.831 F299.99999999999994
G1 X240.207 Y572.194 F299.99999999999994
G1 X240.505 Y571.548 F299.99999999999994
G1 X240.818 Y570.887 F299.99999999999994
G1 X241.147 Y570.204 F299.99999999999994
G1 X241.494 Y569.491 F299.99999999999994
G1 X241.858 Y568.742 F299.99999999999994
G1 X242.242 Y567.949 F299.99999999999994
G1 X242.647 Y567.105 F299.99999999999994
G1 X243.073 Y566.203 F299.99999999999994
G1 X243.320 Y565.839 F299.99999999999994
G1 X243.566 Y565.473 F299.99999999999994
G1 X243.810 Y565.105 F299.99999999999994
G1 X244.052 Y564.736 F299.99999999999994
G1 X244.294 Y564.365 F299.99999999999994
G1 X244.535 Y563.993 F299.99999999999994
G1 X244.776 Y563.621 F299.99999999999994
G1 X245.017 Y563.250 F299.99999999999994
G1 X245.258 Y562.878 F299.99999999999994
G1 X245.500 Y562.508 F299.99999999999994
