; SVG viewBox: (0.0, 0.0, 210.0, 297.0)
; SVG width: 744.09447
; SVG height: 1052.362179
; Scale factor: 3.543307
; Hairbrush Dual-Airbrush Plotter G-code
; Generated by Hairbrush
G90 ; Set absolute positioning
G21 ; Set units to millimeters
G28 ; Home all axes
M84 S0 ; Disable stepper timeout

; SVG file: test_curves.svg
; Layer: All layers
; Paths: 9
; Z height: 2.0mm
; Feedrate: 1500mm/min
; Simplification: No
; Curve resolution: 20
; Debug markers: Yes

; Path 1/9 (id: cubic_bezier1)
G0 Z7.000 F1500
; Path start
; Move to start: SVG(30.000,100.000) -> G-code(106.299,698.031)
G0 X106.299 Y698.031 F1500
M42 P0 S1
G1 Z2.000 F1500
M280 P0 S90
; Warning: Direct curve command 'C' encountered. Using end point only.
G1 X318.898 F1500
M280 P0 S0
G1 Z7.000 F1500
M42 P0 S0
; Path end

; Path 2/9 (id: quadratic_bezier1)
G0 F1500
; Path start
; Move to start: SVG(110.000,100.000) -> G-code(389.764,698.031)
G0 X389.764 F1500
M42 P0 S1
G1 Z2.000 F1500
M280 P0 S90
; Warning: Direct curve command 'Q' encountered. Using end point only.
G1 X531.496 F1500
M280 P0 S0
G1 Z7.000 F1500
M42 P0 S0
; Path end

; Path 3/9 (id: smooth_cubic_bezier1)
G0 F1500
; Path start
; Move to start: SVG(30.000,140.000) -> G-code(106.299,556.299)
G0 X106.299 Y556.299 F1500
M42 P0 S1
G1 Z2.000 F1500
M280 P0 S90
; Warning: Direct curve command 'C' encountered. Using end point only.
G1 X318.898 F1500
; Warning: Direct curve command 'S' encountered. Using end point only.
G1 X460.630 F1500
M280 P0 S0
G1 Z7.000 F1500
M42 P0 S0
; Path end

; Path 4/9 (id: smooth_quadratic_bezier1)
G0 F1500
; Path start
; Move to start: SVG(150.000,140.000) -> G-code(531.496,556.299)
G0 X531.496 F1500
M42 P0 S1
G1 Z2.000 F1500
M280 P0 S90
; Warning: Direct curve command 'Q' encountered. Using end point only.
G1 X673.228 F1500
; Warning: Direct curve command 'T' encountered. Using end point only.
G1 X744.094 F1500
M280 P0 S0
G1 Z7.000 F1500
M42 P0 S0
; Path end

; Path 5/9 (id: arc1)
G0 F1500
; Path start
; Move to start: SVG(30.000,180.000) -> G-code(106.299,414.567)
G0 X106.299 Y414.567 F1500
M42 P0 S1
G1 Z2.000 F1500
M280 P0 S90
; Warning: Direct curve command 'A' encountered. Using end point only.
G1 X248.031 F1500
M280 P0 S0
G1 Z7.000 F1500
M42 P0 S0
; Path end

; Path 6/9 (id: arc2)
G0 F1500
; Path start
; Move to start: SVG(90.000,180.000) -> G-code(318.898,414.567)
G0 X318.898 F1500
M42 P0 S1
G1 Z2.000 F1500
M280 P0 S90
; Warning: Direct curve command 'A' encountered. Using end point only.
G1 X460.630 F1500
M280 P0 S0
G1 Z7.000 F1500
M42 P0 S0
; Path end

; Path 7/9 (id: arc3)
G0 F1500
; Path start
; Move to start: SVG(150.000,180.000) -> G-code(531.496,414.567)
G0 X531.496 F1500
M42 P0 S1
G1 Z2.000 F1500
M280 P0 S90
; Warning: Direct curve command 'A' encountered. Using end point only.
G1 X673.228 F1500
M280 P0 S0
G1 Z7.000 F1500
M42 P0 S0
; Path end

; Path 8/9 (id: complex_path1)
G0 F1500
; Path start
; Move to start: SVG(30.000,220.000) -> G-code(106.299,272.835)
G0 X106.299 Y272.835 F1500
M42 P0 S1
G1 Z2.000 F1500
M280 P0 S90
; Warning: Direct curve command 'C' encountered. Using end point only.
G1 X248.031 F1500
; Warning: Direct curve command 'S' encountered. Using end point only.
G1 X354.331 F1500
; Warning: Direct curve command 'Q' encountered. Using end point only.
G1 X425.197 F1500
; Warning: Direct curve command 'T' encountered. Using end point only.
G1 X496.063 F1500
; Line to: SVG(150.000,230.000) -> G-code(531.496,237.402)
G1 X531.496 Y237.402 F1500
; H line to: SVG(160.000,230.000) -> G-code(566.929,237.402)
G1 X566.929 F1500
; V line to: SVG(160.000,210.000) -> G-code(566.929,308.268)
G1 Y308.268 F1500
; Close path: returning to (106.299,272.835)
G1 X106.299 Y272.835 F1500
M280 P0 S0
G1 Z7.000 F1500
M42 P0 S0
; Path end

; Path 9/9 (id: complex_path2)
G0 F1500
; Path start
; Move to start: SVG(30.000,260.000) -> G-code(106.299,131.102)
G0 Y131.102 F1500
M42 P0 S1
G1 Z2.000 F1500
M280 P0 S90
; Warning: Direct curve command 'c' encountered. Using end point only.
G1 X248.031 F1500
; Warning: Direct curve command 's' encountered. Using end point only.
G1 X354.331 F1500
; Warning: Direct curve command 'q' encountered. Using end point only.
G1 X425.197 F1500
; Warning: Direct curve command 't' encountered. Using end point only.
G1 X496.063 F1500
; Line to: SVG(150.000,270.000) -> G-code(531.496,95.669)
G1 X531.496 Y95.669 F1500
; H line to: SVG(160.000,270.000) -> G-code(566.929,95.669)
G1 X566.929 F1500
; V line to: SVG(160.000,250.000) -> G-code(566.929,166.535)
G1 Y166.535 F1500
; Close path: returning to (106.299,131.102)
G1 X106.299 Y131.102 F1500
M280 P0 S0
G1 Z7.000 F1500
M42 P0 S0
; Path end


; End of G-code
G0 Z10 ; Raise Z
G0 X0 Y0 ; Return to origin
M84 ; Disable motors