; SVG viewBox: (0.0, 0.0, 210.0, 297.0)
; SVG width: 210.0
; SVG height: 297.0
; User scale factor: 1.0
; User offset: X0.000 Y0.000
; H.Airbrush Dual-Airbrush Plotter G-code
; Generated by H.Airbrush Extension
G90 ; Set absolute positioning
G21 ; Set units to millimeters
G17 ; Set working plane to X-Y (G17 = X-Y, G18 = X-Z, G19 = Y-Z)
G28 ; Home all axes
G92 X0 Y0 Z0 ; Set current position as origin
M84 S0 ; Disable stepper timeout
; Coordinate system: X right, Y forward, Z up

; Source SVG: tmp7v6aiy_a.svg
; Paths: 9
; Base Z height: 2.0mm
; Base feedrate: 1500mm/min
; Simplification: No
; Curve resolution: 20
; Debug markers: No

; Path 1/9 (id: path1)
; AIRBRUSH PHYSICS: z_density=0.278, req_opacity=1.000
; WIDTH: requested=0.54mm, actual=0.54mm, compensation=1.000
; ===== STROKE PARAMETERS =====
; Color: #000000
; Width: 0.54mm
; Opacity: 1.00
; Brush: brush_a (index 0)
; ===== AIRBRUSH SETTINGS =====
; Z-height: 2.04mm
; Paint flow: 1.00
; Feedrate: 300mm/min (factor: 0.20)
; Turn on air for brush_a
M42 P0 S1 ; Turn on air solenoid
; Path at Z=2.037185050909942 mm
; Raise brush for travel
G0 Z10.000 F299.99999999999994
; Move to start point
G0 X56.565 Y217.058 F299.99999999999994
; Lower brush to drawing height
G1 Z2.037 F299.99999999999994
; Turn on airbrush
M280 P0 S180 ; Set trigger position for flow=1.00
; Begin drawing path
G1 X56.766 Y217.307 F299.99999999999994
G1 X56.971 Y217.550 F299.99999999999994
G1 X57.180 Y217.787 F299.99999999999994
G1 X57.393 Y218.020 F299.99999999999994
G1 X57.609 Y218.246 F299.99999999999994
G1 X57.828 Y218.468 F299.99999999999994
G1 X58.051 Y218.685 F299.99999999999994
G1 X58.277 Y218.896 F299.99999999999994
G1 X58.505 Y219.102 F299.99999999999994
G1 X58.736 Y219.304 F299.99999999999994
G1 X58.970 Y219.500 F299.99999999999994
G1 X59.206 Y219.692 F299.99999999999994
G1 X59.445 Y219.879 F299.99999999999994
G1 X59.685 Y220.061 F299.99999999999994
G1 X59.927 Y220.239 F299.99999999999994
G1 X60.171 Y220.412 F299.99999999999994
G1 X60.417 Y220.581 F299.99999999999994
G1 X60.663 Y220.745 F299.99999999999994
G1 X60.911 Y220.905 F299.99999999999994
G1 X61.160 Y221.060 F299.99999999999994
G1 X61.271 Y221.128 F299.99999999999994
G1 X61.382 Y221.195 F299.99999999999994
G1 X61.494 Y221.261 F299.99999999999994
G1 X61.606 Y221.325 F299.99999999999994
G1 X61.719 Y221.390 F299.99999999999994
G1 X61.832 Y221.453 F299.99999999999994
G1 X61.945 Y221.516 F299.99999999999994
G1 X62.058 Y221.578 F299.99999999999994
G1 X62.171 Y221.640 F299.99999999999994
G1 X62.284 Y221.701 F299.99999999999994
G1 X62.398 Y221.762 F299.99999999999994
G1 X62.511 Y221.823 F299.99999999999994
G1 X62.625 Y221.884 F299.99999999999994
G1 X62.738 Y221.945 F299.99999999999994
G1 X62.852 Y222.005 F299.99999999999994
G1 X62.965 Y222.066 F299.99999999999994
G1 X63.079 Y222.128 F299.99999999999994
G1 X63.192 Y222.189 F299.99999999999994
G1 X63.305 Y222.251 F299.99999999999994
G1 X63.418 Y222.313 F299.99999999999994
G1 X63.792 Y222.490 F299.99999999999994
G1 X64.166 Y222.664 F299.99999999999994
G1 X64.540 Y222.836 F299.99999999999994
G1 X64.916 Y223.006 F299.99999999999994
G1 X65.292 Y223.174 F299.99999999999994
G1 X65.669 Y223.338 F299.99999999999994
G1 X66.046 Y223.500 F299.99999999999994
G1 X66.425 Y223.659 F299.99999999999994
G1 X66.804 Y223.814 F299.99999999999994
G1 X67.184 Y223.966 F299.99999999999994
G1 X67.565 Y224.114 F299.99999999999994
G1 X67.947 Y224.259 F299.99999999999994
G1 X68.329 Y224.400 F299.99999999999994
G1 X68.712 Y224.536 F299.99999999999994
G1 X69.097 Y224.668 F299.99999999999994
G1 X69.482 Y224.796 F299.99999999999994
G1 X69.867 Y224.919 F299.99999999999994
G1 X70.254 Y225.037 F299.99999999999994
G1 X70.642 Y225.150 F299.99999999999994
G1 X71.030 Y225.258 F299.99999999999994
G1 X71.234 Y225.313 F299.99999999999994
G1 X71.439 Y225.366 F299.99999999999994
G1 X71.645 Y225.417 F299.99999999999994
G1 X71.853 Y225.467 F299.99999999999994
G1 X72.062 Y225.515 F299.99999999999994
G1 X72.271 Y225.562 F299.99999999999994
G1 X72.482 Y225.605 F299.99999999999994
G1 X72.693 Y225.647 F299.99999999999994
G1 X72.905 Y225.686 F299.99999999999994
G1 X73.117 Y225.722 F299.99999999999994
G1 X73.330 Y225.755 F299.99999999999994
G1 X73.542 Y225.784 F299.99999999999994
G1 X73.755 Y225.810 F299.99999999999994
G1 X73.968 Y225.833 F299.99999999999994
G1 X74.180 Y225.851 F299.99999999999994
G1 X74.392 Y225.866 F299.99999999999994
G1 X74.603 Y225.876 F299.99999999999994
G1 X74.814 Y225.882 F299.99999999999994
G1 X75.024 Y225.883 F299.99999999999994
G1 X75.233 Y225.880 F299.99999999999994
G1 X75.318 Y225.876 F299.99999999999994
G1 X75.404 Y225.871 F299.99999999999994
G1 X75.489 Y225.864 F299.99999999999994
G1 X75.574 Y225.856 F299.99999999999994
G1 X75.659 Y225.846 F299.99999999999994
G1 X75.743 Y225.835 F299.99999999999994
G1 X75.828 Y225.823 F299.99999999999994
G1 X75.913 Y225.811 F299.99999999999994
G1 X75.998 Y225.797 F299.99999999999994
G1 X76.082 Y225.783 F299.99999999999994
G1 X76.167 Y225.768 F299.99999999999994
G1 X76.252 Y225.753 F299.99999999999994
G1 X76.336 Y225.738 F299.99999999999994
G1 X76.421 Y225.722 F299.99999999999994
G1 X76.506 Y225.707 F299.99999999999994
G1 X76.590 Y225.692 F299.99999999999994
G1 X76.675 Y225.677 F299.99999999999994
G1 X76.760 Y225.663 F299.99999999999994
G1 X76.844 Y225.650 F299.99999999999994
G1 X76.929 Y225.637 F299.99999999999994
G1 X76.850 Y225.765 F299.99999999999994
G1 X76.843 Y225.833 F299.99999999999994
G1 X76.899 Y225.847 F299.99999999999994
G1 X77.011 Y225.815 F299.99999999999994
G1 X77.170 Y225.741 F299.99999999999994
G1 X77.368 Y225.633 F299.99999999999994
G1 X77.597 Y225.496 F299.99999999999994
G1 X77.849 Y225.336 F299.99999999999994
G1 X78.115 Y225.160 F299.99999999999994
G1 X78.389 Y224.974 F299.99999999999994
G1 X78.661 Y224.784 F299.99999999999994
G1 X78.924 Y224.596 F299.99999999999994
G1 X79.170 Y224.416 F299.99999999999994
G1 X79.390 Y224.250 F299.99999999999994
G1 X79.576 Y224.105 F299.99999999999994
G1 X79.721 Y223.986 F299.99999999999994
G1 X79.816 Y223.901 F299.99999999999994
G1 X79.853 Y223.854 F299.99999999999994
G1 X79.824 Y223.852 F299.99999999999994
G1 X79.721 Y223.902 F299.99999999999994
G1 X79.512 Y224.021 F299.99999999999994
G1 X79.305 Y224.151 F299.99999999999994
G1 X79.101 Y224.290 F299.99999999999994
G1 X78.899 Y224.436 F299.99999999999994
G1 X78.699 Y224.587 F299.99999999999994
G1 X78.499 Y224.743 F299.99999999999994
G1 X78.301 Y224.901 F299.99999999999994
G1 X78.102 Y225.060 F299.99999999999994
G1 X77.904 Y225.219 F299.99999999999994
G1 X77.705 Y225.375 F299.99999999999994
G1 X77.506 Y225.528 F299.99999999999994
G1 X77.305 Y225.675 F299.99999999999994
G1 X77.103 Y225.815 F299.99999999999994
G1 X76.899 Y225.947 F299.99999999999994
G1 X76.693 Y226.069 F299.99999999999994
G1 X76.484 Y226.179 F299.99999999999994
G1 X76.272 Y226.276 F299.99999999999994
G1 X76.056 Y226.358 F299.99999999999994
G1 X75.837 Y226.424 F299.99999999999994
G1 X75.613 Y226.472 F299.99999999999994
G1 X75.527 Y226.478 F299.99999999999994
G1 X75.472 Y226.462 F299.99999999999994
G1 X75.447 Y226.426 F299.99999999999994
G1 X75.449 Y226.370 F299.99999999999994
G1 X75.475 Y226.298 F299.99999999999994
G1 X75.522 Y226.211 F299.99999999999994
G1 X75.589 Y226.110 F299.99999999999994
G1 X75.672 Y225.997 F299.99999999999994
G1 X75.768 Y225.875 F299.99999999999994
G1 X75.875 Y225.744 F299.99999999999994
G1 X75.991 Y225.607 F299.99999999999994
G1 X76.112 Y225.466 F299.99999999999994
G1 X76.236 Y225.321 F299.99999999999994
G1 X76.361 Y225.175 F299.99999999999994
G1 X76.483 Y225.029 F299.99999999999994
G1 X76.600 Y224.886 F299.99999999999994
G1 X76.709 Y224.747 F299.99999999999994
G1 X76.808 Y224.614 F299.99999999999994
G1 X76.894 Y224.488 F299.99999999999994
G1 X76.964 Y224.372 F299.99999999999994
G1 X77.116 Y224.094 F299.99999999999994
G1 X77.257 Y223.827 F299.99999999999994
G1 X77.388 Y223.572 F299.99999999999994
G1 X77.510 Y223.325 F299.99999999999994
G1 X77.625 Y223.086 F299.99999999999994
G1 X77.732 Y222.853 F299.99999999999994
G1 X77.834 Y222.625 F299.99999999999994
G1 X77.930 Y222.399 F299.99999999999994
G1 X78.022 Y222.175 F299.99999999999994
G1 X78.111 Y221.951 F299.99999999999994
G1 X78.198 Y221.725 F299.99999999999994
G1 X78.284 Y221.497 F299.99999999999994
G1 X78.370 Y221.263 F299.99999999999994
G1 X78.456 Y221.024 F299.99999999999994
G1 X78.544 Y220.777 F299.99999999999994
G1 X78.635 Y220.520 F299.99999999999994
G1 X78.729 Y220.253 F299.99999999999994
G1 X78.828 Y219.974 F299.99999999999994
G1 X78.932 Y219.681 F299.99999999999994
G1 X79.043 Y219.373 F299.99999999999994
G1 X79.260 Y218.602 F299.99999999999994
G1 X79.459 Y217.827 F299.99999999999994
G1 X79.639 Y217.046 F299.99999999999994
G1 X79.801 Y216.261 F299.99999999999994
G1 X79.946 Y215.472 F299.99999999999994
G1 X80.074 Y214.678 F299.99999999999994
G1 X80.185 Y213.881 F299.99999999999994
G1 X80.281 Y213.081 F299.99999999999994
G1 X80.360 Y212.278 F299.99999999999994
G1 X80.424 Y211.473 F299.99999999999994
G1 X80.474 Y210.665 F299.99999999999994
G1 X80.509 Y209.855 F299.99999999999994
G1 X80.530 Y209.044 F299.99999999999994
G1 X80.538 Y208.232 F299.99999999999994
G1 X80.533 Y207.419 F299.99999999999994
G1 X80.515 Y206.605 F299.99999999999994
G1 X80.486 Y205.791 F299.99999999999994
G1 X80.444 Y204.978 F299.99999999999994
G1 X80.392 Y204.165 F299.99999999999994
G1 X80.328 Y203.352 F299.99999999999994
G1 X80.315 Y203.205 F299.99999999999994
G1 X80.302 Y203.058 F299.99999999999994
G1 X80.288 Y202.911 F299.99999999999994
G1 X80.273 Y202.764 F299.99999999999994
G1 X80.258 Y202.617 F299.99999999999994
G1 X80.243 Y202.470 F299.99999999999994
G1 X80.227 Y202.323 F299.99999999999994
G1 X80.210 Y202.176 F299.99999999999994
G1 X80.194 Y202.030 F299.99999999999994
G1 X80.177 Y201.883 F299.99999999999994
G1 X80.160 Y201.736 F299.99999999999994
G1 X80.143 Y201.590 F299.99999999999994
G1 X80.126 Y201.443 F299.99999999999994
G1 X80.109 Y201.297 F299.99999999999994
G1 X80.092 Y201.150 F299.99999999999994
G1 X80.075 Y201.003 F299.99999999999994
G1 X80.058 Y200.857 F299.99999999999994
G1 X80.041 Y200.710 F299.99999999999994
G1 X80.025 Y200.563 F299.99999999999994
G1 X80.009 Y200.416 F299.99999999999994
G1 X79.906 Y199.755 F299.99999999999994
G1 X79.804 Y199.093 F299.99999999999994
G1 X79.701 Y198.429 F299.99999999999994
G1 X79.596 Y197.764 F299.99999999999994
G1 X79.489 Y197.099 F299.99999999999994
G1 X79.379 Y196.435 F299.99999999999994
G1 X79.266 Y195.771 F299.99999999999994
G1 X79.148 Y195.109 F299.99999999999994
G1 X79.024 Y194.448 F299.99999999999994
G1 X78.895 Y193.789 F299.99999999999994
G1 X78.759 Y193.133 F299.99999999999994
G1 X78.615 Y192.481 F299.99999999999994
G1 X78.464 Y191.832 F299.99999999999994
G1 X78.303 Y191.187 F299.99999999999994
G1 X78.133 Y190.547 F299.99999999999994
G1 X77.952 Y189.913 F299.99999999999994
G1 X77.759 Y189.284 F299.99999999999994
G1 X77.555 Y188.661 F299.99999999999994
G1 X77.339 Y188.045 F299.99999999999994
G1 X77.108 Y187.436 F299.99999999999994
G1 X77.059 Y187.313 F299.99999999999994
G1 X77.010 Y187.191 F299.99999999999994
G1 X76.959 Y187.070 F299.99999999999994
G1 X76.908 Y186.949 F299.99999999999994
G1 X76.856 Y186.829 F299.99999999999994
G1 X76.803 Y186.709 F299.99999999999994
G1 X76.749 Y186.590 F299.99999999999994
G1 X76.695 Y186.471 F299.99999999999994
G1 X76.641 Y186.352 F299.99999999999994
G1 X76.586 Y186.234 F299.99999999999994
G1 X76.532 Y186.116 F299.99999999999994
G1 X76.476 Y185.998 F299.99999999999994
G1 X76.421 Y185.880 F299.99999999999994
G1 X76.366 Y185.762 F299.99999999999994
G1 X76.311 Y185.644 F299.99999999999994
G1 X76.256 Y185.526 F299.99999999999994
G1 X76.201 Y185.407 F299.99999999999994
G1 X76.146 Y185.289 F299.99999999999994
G1 X76.092 Y185.170 F299.99999999999994
G1 X76.038 Y185.051 F299.99999999999994
G1 X75.818 Y184.609 F299.99999999999994
G1 X75.589 Y184.175 F299.99999999999994
G1 X75.353 Y183.751 F299.99999999999994
G1 X75.109 Y183.334 F299.99999999999994
G1 X74.859 Y182.924 F299.99999999999994
G1 X74.604 Y182.520 F299.99999999999994
G1 X74.343 Y182.123 F299.99999999999994
G1 X74.077 Y181.731 F299.99999999999994
G1 X73.808 Y181.343 F299.99999999999994
G1 X73.535 Y180.959 F299.99999999999994
G1 X73.259 Y180.578 F299.99999999999994
G1 X72.981 Y180.199 F299.99999999999994
G1 X72.701 Y179.823 F299.99999999999994
G1 X72.421 Y179.447 F299.99999999999994
G1 X72.140 Y179.072 F299.99999999999994
G1 X71.860 Y178.696 F299.99999999999994
G1 X71.580 Y178.320 F299.99999999999994
G1 X71.302 Y177.942 F299.99999999999994
G1 X71.025 Y177.562 F299.99999999999994
G1 X70.752 Y177.179 F299.99999999999994
G1 X70.546 Y176.887 F299.99999999999994
G1 X70.362 Y176.625 F299.99999999999994
G1 X70.198 Y176.390 F299.99999999999994
G1 X70.051 Y176.178 F299.99999999999994
G1 X69.919 Y175.985 F299.99999999999994
G1 X69.800 Y175.809 F299.99999999999994
G1 X69.691 Y175.646 F299.99999999999994
G1 X69.591 Y175.492 F299.99999999999994
G1 X69.496 Y175.344 F299.99999999999994
G1 X69.406 Y175.198 F299.99999999999994
G1 X69.316 Y175.051 F299.99999999999994
G1 X69.226 Y174.900 F299.99999999999994
G1 X69.132 Y174.742 F299.99999999999994
G1 X69.034 Y174.572 F299.99999999999994
G1 X68.927 Y174.387 F299.99999999999994
G1 X68.810 Y174.184 F299.99999999999994
G1 X68.681 Y173.960 F299.99999999999994
G1 X68.537 Y173.710 F299.99999999999994
G1 X68.376 Y173.432 F299.99999999999994
G1 X68.197 Y173.123 F299.99999999999994
G1 X68.153 Y173.013 F299.99999999999994
G1 X68.109 Y172.905 F299.99999999999994
G1 X68.065 Y172.796 F299.99999999999994
G1 X68.020 Y172.688 F299.99999999999994
G1 X67.975 Y172.580 F299.99999999999994
G1 X67.929 Y172.473 F299.99999999999994
G1 X67.883 Y172.365 F299.99999999999994
G1 X67.838 Y172.257 F299.99999999999994
G1 X67.792 Y172.149 F299.99999999999994
G1 X67.747 Y172.041 F299.99999999999994
G1 X67.702 Y171.933 F299.99999999999994
G1 X67.658 Y171.825 F299.99999999999994
G1 X67.615 Y171.716 F299.99999999999994
G1 X67.572 Y171.606 F299.99999999999994
G1 X67.531 Y171.496 F299.99999999999994
G1 X67.490 Y171.385 F299.99999999999994
G1 X67.451 Y171.274 F299.99999999999994
G1 X67.413 Y171.162 F299.99999999999994
G1 X67.376 Y171.049 F299.99999999999994
G1 X67.341 Y170.935 F299.99999999999994
G1 X67.248 Y170.607 F299.99999999999994
G1 X67.163 Y170.277 F299.99999999999994
G1 X67.085 Y169.943 F299.99999999999994
G1 X67.015 Y169.605 F299.99999999999994
G1 X66.953 Y169.266 F299.99999999999994
G1 X66.898 Y168.923 F299.99999999999994
G1 X66.852 Y168.579 F299.99999999999994
G1 X66.813 Y168.233 F299.99999999999994
G1 X66.783 Y167.886 F299.99999999999994
G1 X66.760 Y167.538 F299.99999999999994
G1 X66.746 Y167.189 F299.99999999999994
G1 X66.740 Y166.839 F299.99999999999994
G1 X66.742 Y166.490 F299.99999999999994
G1 X66.752 Y166.141 F299.99999999999994
G1 X66.771 Y165.793 F299.99999999999994
G1 X66.799 Y165.445 F299.99999999999994
G1 X66.834 Y165.099 F299.99999999999994
G1 X66.879 Y164.755 F299.99999999999994
G1 X66.932 Y164.412 F299.99999999999994
G1 X66.994 Y164.072 F299.99999999999994
G1 X67.053 Y163.784 F299.99999999999994
G1 X67.112 Y163.516 F299.99999999999994
G1 X67.171 Y163.266 F299.99999999999994
G1 X67.232 Y163.032 F299.99999999999994
G1 X67.294 Y162.811 F299.99999999999994
G1 X67.358 Y162.602 F299.99999999999994
G1 X67.423 Y162.403 F299.99999999999994
G1 X67.491 Y162.212 F299.99999999999994
G1 X67.561 Y162.027 F299.99999999999994
G1 X67.635 Y161.846 F299.99999999999994
G1 X67.712 Y161.666 F299.99999999999994
G1 X67.792 Y161.486 F299.99999999999994
G1 X67.876 Y161.303 F299.99999999999994
G1 X67.964 Y161.117 F299.99999999999994
G1 X68.057 Y160.924 F299.99999999999994
G1 X68.155 Y160.723 F299.99999999999994
