; SVG viewBox: (0.0, 0.0, 210.0, 297.0)
; SVG width: 210.0
; SVG height: 297.0
; User scale factor: 1.0
; User offset: X0.000 Y0.000
; H.Airbrush Dual-Airbrush Plotter G-code
; Generated by H.Airbrush Extension
G90 ; Set absolute positioning
G21 ; Set units to millimeters
G17 ; Set working plane to X-Y (G17 = X-Y, G18 = X-Z, G19 = Y-Z)
M84 S0 ; Disable stepper timeout
; Coordinate system: X right, Y forward, Z up

; Source SVG: tmpi_o4mmh2.svg
; Paths: 9
; Base Z height: 2.0mm
; Base feedrate: 5000mm/min
; Simplification: No
; Curve resolution: 20
; Debug markers: No

; Path 1/9 (id: path1)
; AIRBRUSH PHYSICS: z_density=0.278, req_opacity=1.000
; WIDTH: requested=0.54mm, actual=0.54mm, compensation=1.000
; ===== STROKE PARAMETERS =====
; Color: #000000
; Width: 0.54mm
; Opacity: 1.00
; Brush: brush_a (index 0)
T0 ; Select Brush A (Black)
; ===== AIRBRUSH SETTINGS =====
; Z-height: 2.04mm
; Paint flow: 1.00
; Feedrate: 1000mm/min (factor: 0.20)
; Using brush: brush_a (tool 0)
; Path with Brush A (black) at Z=2.04mm
G0 Z10.00 F3000
M400 ; Wait for Z movement to complete
G0 X56.56 Y217.06 F3000
M400 ; Wait for XY movement to complete
G1 Z2.04 F1500
M400 ; Wait for Z movement to complete
M42 P0 S0 ; Ensure Brush A (black) air off before starting
M280 P0 S0 ; Ensure trigger off
M42 P0 S1 ; Air on
M280 P0 S180 ; Trigger on
G1 F999.9999999999998
G1 X56.77 Y217.31
G1 X56.97 Y217.55
G1 X57.18 Y217.79
G1 X57.39 Y218.02
G1 X57.61 Y218.25
G1 X57.83 Y218.47
G1 X58.05 Y218.69
G1 X58.28 Y218.90
G1 X58.51 Y219.10
G1 X58.74 Y219.30
G1 X58.97 Y219.50
G1 X59.21 Y219.69
G1 X59.45 Y219.88
G1 X59.69 Y220.06
G1 X59.93 Y220.24
G1 X60.17 Y220.41
G1 X60.42 Y220.58
G1 X60.66 Y220.75
G1 X60.91 Y220.91
G1 X61.16 Y221.06
G1 X61.27 Y221.13
G1 X61.38 Y221.19
G1 X61.49 Y221.26
G1 X61.61 Y221.32
G1 X61.72 Y221.39
G1 X61.83 Y221.45
G1 X61.95 Y221.52
G1 X62.06 Y221.58
G1 X62.17 Y221.64
G1 X62.28 Y221.70
G1 X62.40 Y221.76
G1 X62.51 Y221.82
G1 X62.62 Y221.88
G1 X62.74 Y221.94
G1 X62.85 Y222.00
G1 X62.97 Y222.07
G1 X63.08 Y222.13
G1 X63.19 Y222.19
G1 X63.30 Y222.25
G1 X63.42 Y222.31
G1 X63.79 Y222.49
G1 X64.17 Y222.66
G1 X64.54 Y222.84
G1 X64.92 Y223.01
G1 X65.29 Y223.17
G1 X65.67 Y223.34
G1 X66.05 Y223.50
G1 X66.42 Y223.66
G1 X66.80 Y223.81
G1 X67.18 Y223.97
G1 X67.56 Y224.11
G1 X67.95 Y224.26
G1 X68.33 Y224.40
G1 X68.71 Y224.54
G1 X69.10 Y224.67
G1 X69.48 Y224.80
G1 X69.87 Y224.92
G1 X70.25 Y225.04
G1 X70.64 Y225.15
G1 X71.03 Y225.26
G1 X71.23 Y225.31
G1 X71.44 Y225.37
G1 X71.64 Y225.42
G1 X71.85 Y225.47
G1 X72.06 Y225.51
G1 X72.27 Y225.56
G1 X72.48 Y225.60
G1 X72.69 Y225.65
G1 X72.91 Y225.69
G1 X73.12 Y225.72
G1 X73.33 Y225.75
G1 X73.54 Y225.78
G1 X73.75 Y225.81
G1 X73.97 Y225.83
G1 X74.18 Y225.85
G1 X74.39 Y225.87
G1 X74.60 Y225.88
G1 X74.81 Y225.88
G1 X75.02 Y225.88
G1 X75.23 Y225.88
G1 X75.32 Y225.88
G1 X75.40 Y225.87
G1 X75.49 Y225.86
G1 X75.57 Y225.86
G1 X75.66 Y225.85
G1 X75.74 Y225.84
G1 X75.83 Y225.82
G1 X75.91 Y225.81
G1 X76.00 Y225.80
G1 X76.08 Y225.78
G1 X76.17 Y225.77
G1 X76.25 Y225.75
G1 X76.34 Y225.74
G1 X76.42 Y225.72
G1 X76.51 Y225.71
G1 X76.59 Y225.69
G1 X76.67 Y225.68
G1 X76.76 Y225.66
G1 X76.84 Y225.65
G1 X76.93 Y225.64
G1 X76.85 Y225.76
G1 X76.84 Y225.83
G1 X76.90 Y225.85
G1 X77.01 Y225.81
G1 X77.17 Y225.74
G1 X77.37 Y225.63
G1 X77.60 Y225.50
G1 X77.85 Y225.34
G1 X78.11 Y225.16
G1 X78.39 Y224.97
G1 X78.66 Y224.78
G1 X78.92 Y224.60
G1 X79.17 Y224.42
G1 X79.39 Y224.25
G1 X79.58 Y224.10
G1 X79.72 Y223.99
G1 X79.82 Y223.90
G1 X79.85 Y223.85
G1 X79.82 Y223.85
G1 X79.72 Y223.90
G1 X79.51 Y224.02
G1 X79.31 Y224.15
G1 X79.10 Y224.29
G1 X78.90 Y224.44
G1 X78.70 Y224.59
G1 X78.50 Y224.74
G1 X78.30 Y224.90
G1 X78.10 Y225.06
G1 X77.90 Y225.22
G1 X77.70 Y225.38
G1 X77.51 Y225.53
G1 X77.31 Y225.68
G1 X77.10 Y225.81
G1 X76.90 Y225.95
G1 X76.69 Y226.07
G1 X76.48 Y226.18
G1 X76.27 Y226.28
G1 X76.06 Y226.36
G1 X75.84 Y226.42
G1 X75.61 Y226.47
G1 X75.53 Y226.48
G1 X75.47 Y226.46
G1 X75.45 Y226.43
G1 X75.45 Y226.37
G1 X75.47 Y226.30
G1 X75.52 Y226.21
G1 X75.59 Y226.11
G1 X75.67 Y226.00
G1 X75.77 Y225.88
G1 X75.88 Y225.74
G1 X75.99 Y225.61
G1 X76.11 Y225.47
G1 X76.24 Y225.32
G1 X76.36 Y225.18
G1 X76.48 Y225.03
G1 X76.60 Y224.89
G1 X76.71 Y224.75
G1 X76.81 Y224.61
G1 X76.89 Y224.49
G1 X76.96 Y224.37
G1 X77.12 Y224.09
G1 X77.26 Y223.83
G1 X77.39 Y223.57
G1 X77.51 Y223.32
G1 X77.62 Y223.09
G1 X77.73 Y222.85
G1 X77.83 Y222.62
G1 X77.93 Y222.40
G1 X78.02 Y222.18
G1 X78.11 Y221.95
G1 X78.20 Y221.72
G1 X78.28 Y221.50
G1 X78.37 Y221.26
G1 X78.46 Y221.02
G1 X78.54 Y220.78
G1 X78.64 Y220.52
G1 X78.73 Y220.25
G1 X78.83 Y219.97
G1 X78.93 Y219.68
G1 X79.04 Y219.37
G1 X79.26 Y218.60
G1 X79.46 Y217.83
G1 X79.64 Y217.05
G1 X79.80 Y216.26
G1 X79.95 Y215.47
G1 X80.07 Y214.68
G1 X80.19 Y213.88
G1 X80.28 Y213.08
G1 X80.36 Y212.28
G1 X80.42 Y211.47
G1 X80.47 Y210.66
G1 X80.51 Y209.85
G1 X80.53 Y209.04
G1 X80.54 Y208.23
G1 X80.53 Y207.42
G1 X80.52 Y206.60
G1 X80.49 Y205.79
G1 X80.44 Y204.98
G1 X80.39 Y204.16
G1 X80.33 Y203.35
G1 X80.31 Y203.21
G1 X80.30 Y203.06
G1 X80.29 Y202.91
G1 X80.27 Y202.76
G1 X80.26 Y202.62
G1 X80.24 Y202.47
G1 X80.23 Y202.32
G1 X80.21 Y202.18
G1 X80.19 Y202.03
G1 X80.18 Y201.88
G1 X80.16 Y201.74
G1 X80.14 Y201.59
G1 X80.13 Y201.44
G1 X80.11 Y201.30
G1 X80.09 Y201.15
G1 X80.08 Y201.00
G1 X80.06 Y200.86
G1 X80.04 Y200.71
G1 X80.03 Y200.56
G1 X80.01 Y200.42
G1 X79.91 Y199.75
G1 X79.80 Y199.09
G1 X79.70 Y198.43
G1 X79.60 Y197.76
G1 X79.49 Y197.10
G1 X79.38 Y196.44
G1 X79.27 Y195.77
G1 X79.15 Y195.11
G1 X79.02 Y194.45
G1 X78.89 Y193.79
G1 X78.76 Y193.13
G1 X78.61 Y192.48
G1 X78.46 Y191.83
G1 X78.30 Y191.19
G1 X78.13 Y190.55
G1 X77.95 Y189.91
G1 X77.76 Y189.28
G1 X77.56 Y188.66
G1 X77.34 Y188.04
G1 X77.11 Y187.44
G1 X77.06 Y187.31
G1 X77.01 Y187.19
G1 X76.96 Y187.07
G1 X76.91 Y186.95
G1 X76.86 Y186.83
G1 X76.80 Y186.71
G1 X76.75 Y186.59
G1 X76.69 Y186.47
G1 X76.64 Y186.35
G1 X76.59 Y186.23
G1 X76.53 Y186.12
G1 X76.48 Y186.00
G1 X76.42 Y185.88
G1 X76.37 Y185.76
G1 X76.31 Y185.64
G1 X76.26 Y185.53
G1 X76.20 Y185.41
G1 X76.15 Y185.29
G1 X76.09 Y185.17
G1 X76.04 Y185.05
G1 X75.82 Y184.61
G1 X75.59 Y184.18
G1 X75.35 Y183.75
G1 X75.11 Y183.33
G1 X74.86 Y182.92
G1 X74.60 Y182.52
G1 X74.34 Y182.12
G1 X74.08 Y181.73
G1 X73.81 Y181.34
G1 X73.53 Y180.96
G1 X73.26 Y180.58
G1 X72.98 Y180.20
G1 X72.70 Y179.82
G1 X72.42 Y179.45
G1 X72.14 Y179.07
G1 X71.86 Y178.70
G1 X71.58 Y178.32
G1 X71.30 Y177.94
G1 X71.03 Y177.56
G1 X70.75 Y177.18
G1 X70.55 Y176.89
G1 X70.36 Y176.62
G1 X70.20 Y176.39
G1 X70.05 Y176.18
G1 X69.92 Y175.99
G1 X69.80 Y175.81
G1 X69.69 Y175.65
G1 X69.59 Y175.49
G1 X69.50 Y175.34
G1 X69.41 Y175.20
G1 X69.32 Y175.05
G1 X69.23 Y174.90
G1 X69.13 Y174.74
G1 X69.03 Y174.57
G1 X68.93 Y174.39
G1 X68.81 Y174.18
G1 X68.68 Y173.96
G1 X68.54 Y173.71
G1 X68.38 Y173.43
G1 X68.20 Y173.12
G1 X68.15 Y173.01
G1 X68.11 Y172.91
G1 X68.06 Y172.80
G1 X68.02 Y172.69
G1 X67.97 Y172.58
G1 X67.93 Y172.47
G1 X67.88 Y172.37
G1 X67.84 Y172.26
G1 X67.79 Y172.15
G1 X67.75 Y172.04
G1 X67.70 Y171.93
G1 X67.66 Y171.82
G1 X67.61 Y171.72
G1 X67.57 Y171.61
G1 X67.53 Y171.50
G1 X67.49 Y171.38
G1 X67.45 Y171.27
G1 X67.41 Y171.16
G1 X67.38 Y171.05
G1 X67.34 Y170.94
G1 X67.25 Y170.61
G1 X67.16 Y170.28
G1 X67.08 Y169.94
G1 X67.02 Y169.60
G1 X66.95 Y169.27
G1 X66.90 Y168.92
G1 X66.85 Y168.58
G1 X66.81 Y168.23
G1 X66.78 Y167.89
G1 X66.76 Y167.54
G1 X66.75 Y167.19
G1 X66.74 Y166.84
G1 X66.74 Y166.49
G1 X66.75 Y166.14
G1 X66.77 Y165.79
G1 X66.80 Y165.44
G1 X66.83 Y165.10
G1 X66.88 Y164.75
G1 X66.93 Y164.41
G1 X66.99 Y164.07
G1 X67.05 Y163.78
G1 X67.11 Y163.52
G1 X67.17 Y163.27
G1 X67.23 Y163.03
G1 X67.29 Y162.81
G1 X67.36 Y162.60
G1 X67.42 Y162.40
G1 X67.49 Y162.21
G1 X67.56 Y162.03
G1 X67.64 Y161.85
G1 X67.71 Y161.67
G1 X67.79 Y161.49
G1 X67.88 Y161.30
G1 X67.96 Y161.12
G1 X68.06 Y160.92
G1 X68.16 Y160.72
G1 X68.26 Y160.51
G1 X68.37 Y160.29
G1 X68.48 Y160.05
G1 X68.60 Y159.79
G1 X68.67 Y159.69
G1 X68.74 Y159.59
G1 X68.81 Y159.49
G1 X68.88 Y159.38
G1 X68.94 Y159.28
G1 X69.01 Y159.17
G1 X69.08 Y159.07
G1 X69.15 Y158.96
G1 X69.22 Y158.86
G1 X69.29 Y158.75
G1 X69.35 Y158.65
G1 X69.42 Y158.54
G1 X69.49 Y158.44
G1 X69.56 Y158.34
G1 X69.63 Y158.24
G1 X69.71 Y158.14
G1 X69.78 Y158.04
G1 X69.85 Y157.94
G1 X69.93 Y157.85
G1 X70.00 Y157.75
G1 X70.09 Y157.65
G1 X70.18 Y157.54
G1 X70.26 Y157.43
G1 X70.35 Y157.33
G1 X70.44 Y157.22
G1 X70.53 Y157.12
G1 X70.62 Y157.02
G1 X70.71 Y156.92
G1 X70.80 Y156.82
G1 X70.89 Y156.72
G1 X70.98 Y156.62
G1 X71.08 Y156.52
G1 X71.17 Y156.43
G1 X71.26 Y156.33
G1 X71.36 Y156.24
G1 X71.46 Y156.15
G1 X71.55 Y156.06
G1 X71.65 Y155.98
G1 X71.75 Y155.89
G1 X71.85 Y155.81
G1 X72.47 Y155.32
G1 X73.06 Y154.85
G1 X73.63 Y154.40
G1 X74.19 Y153.95
G1 X74.74 Y153.52
G1 X75.27 Y153.10
G1 X75.80 Y152.70
G1 X76.31 Y152.31
G1 X76.83 Y151.94
G1 X77.34 Y151.57
G1 X77.86 Y151.22
G1 X78.37 Y150.88
G1 X78.90 Y150.56
G1 X79.43 Y150.25
G1 X79.97 Y149.95
G1 X80.52 Y149.66
G1 X81.09 Y149.38
G1 X81.67 Y149.12
G1 X82.28 Y148.87
G1 X82.91 Y148.63
G1 X83.29 Y148.49
G1 X83.68 Y148.35
G1 X84.07 Y148.23
G1 X84.47 Y148.11
G1 X84.86 Y147.99
G1 X85.26 Y147.88
G1 X85.66 Y147.77
G1 X86.06 Y147.67
G1 X86.46 Y147.57
G1 X86.86 Y147.47
G1 X87.26 Y147.38
G1 X87.66 Y147.29
G1 X88.06 Y147.20
G1 X88.46 Y147.11
G1 X88.86 Y147.03
G1 X89.26 Y146.94
G1 X89.66 Y146.85
G1 X90.06 Y146.77
G1 X90.46 Y146.68
G1 X90.85 Y146.60
G1 X91.60 Y146.47
G1 X92.36 Y146.35
G1 X93.11 Y146.24
G1 X93.87 Y146.14
G1 X94.63 Y146.05
G1 X95.39 Y145.98
G1 X96.15 Y145.92
G1 X96.91 Y145.88
G1 X97.66 Y145.85
G1 X98.42 Y145.84
G1 X99.18 Y145.84
G1 X99.94 Y145.86
G1 X100.70 Y145.91
G1 X101.46 Y145.97
G1 X102.21 Y146.05
G1 X102.97 Y146.16
G1 X103.72 Y146.29
G1 X104.47 Y146.44
G1 X105.22 Y146.62
G1 X105.97 Y146.82
G1 X106.36 Y146.93
G1 X106.72 Y147.04
G1 X107.06 Y147.15
G1 X107.38 Y147.26
G1 X107.67 Y147.36
G1 X107.95 Y147.47
G1 X108.22 Y147.58
G1 X108.48 Y147.69
G1 X108.73 Y147.80
G1 X108.98 Y147.91
G1 X109.23 Y148.03
G1 X109.47 Y148.16
G1 X109.72 Y148.28
G1 X109.98 Y148.42
G1 X110.25 Y148.56
G1 X110.53 Y148.71
G1 X110.83 Y148.87
G1 X111.15 Y149.04
G1 X111.49 Y149.22
G1 X111.85 Y149.41
G1 X111.98 Y149.51
G1 X112.10 Y149.59
G1 X112.23 Y149.68
G1 X112.36 Y149.77
G1 X112.48 Y149.86
G1 X112.61 Y149.94
G1 X112.74 Y150.03
G1 X112.86 Y150.11
G1 X112.99 Y150.20
G1 X113.12 Y150.29
G1 X113.25 Y150.38
G1 X113.37 Y150.46
G1 X113.50 Y150.55
G1 X113.62 Y150.64
G1 X113.75 Y150.74
G1 X113.87 Y150.83
G1 X113.99 Y150.93
G1 X114.11 Y151.03
G1 X114.23 Y151.13
G1 X114.35 Y151.23
G1 X114.80 Y151.65
G1 X115.25 Y152.08
G1 X115.68 Y152.54
G1 X116.11 Y153.01
G1 X116.54 Y153.51
G1 X116.95 Y154.02
G1 X117.36 Y154.54
G1 X117.75 Y155.08
G1 X118.14 Y155.63
G1 X118.52 Y156.20
G1 X118.88 Y156.78
G1 X119.24 Y157.37
G1 X119.59 Y157.96
G1 X119.92 Y158.57
G1 X120.25 Y159.18
G1 X120.56 Y159.80
G1 X120.86 Y160.42
G1 X121.15 Y161.05
G1 X121.43 Y161.68
G1 X121.69 Y162.31
G1 X121.75 Y162.47
G1 X121.81 Y162.62
G1 X121.87 Y162.77
G1 X121.93 Y162.93
G1 X121.98 Y163.08
G1 X122.04 Y163.24
G1 X122.09 Y163.40
G1 X122.15 Y163.55
G1 X122.20 Y163.71
G1 X122.26 Y163.87
G1 X122.31 Y164.02
G1 X122.36 Y164.18
G1 X122.42 Y164.34
G1 X122.47 Y164.50
G1 X122.52 Y164.66
G1 X122.58 Y164.81
G1 X122.63 Y164.97
G1 X122.68 Y165.13
G1 X122.74 Y165.28
G1 X122.79 Y165.44
G1 X123.00 Y166.16
G1 X123.20 Y166.89
G1 X123.39 Y167.62
G1 X123.57 Y168.36
G1 X123.74 Y169.10
G1 X123.90 Y169.84
G1 X124.04 Y170.59
G1 X124.18 Y171.34
G1 X124.31 Y172.10
G1 X124.42 Y172.85
G1 X124.52 Y173.62
G1 X124.61 Y174.38
G1 X124.69 Y175.14
G1 X124.76 Y175.91
G1 X124.82 Y176.68
G1 X124.87 Y177.45
G1 X124.90 Y178.22
G1 X124.92 Y178.99
G1 X124.93 Y179.77
G1 X124.93 Y180.54
G1 X124.93 Y180.69
G1 X124.93 Y180.84
G1 X124.92 Y180.99
G1 X124.92 Y181.13
G1 X124.92 Y181.28
G1 X124.91 Y181.43
G1 X124.90 Y181.58
G1 X124.90 Y181.73
G1 X124.89 Y181.88
G1 X124.89 Y182.03
G1 X124.88 Y182.17
G1 X124.87 Y182.32
G1 X124.86 Y182.47
G1 X124.86 Y182.62
G1 X124.85 Y182.77
G1 X124.84 Y182.92
G1 X124.84 Y183.06
G1 X124.83 Y183.21
G1 X124.82 Y183.36
G1 X124.82 Y183.51
G1 X124.73 Y184.39
G1 X124.64 Y185.27
G1 X124.54 Y186.15
G1 X124.43 Y187.03
G1 X124.31 Y187.90
G1 X124.18 Y188.78
G1 X124.05 Y189.65
G1 X123.90 Y190.51
G1 X123.75 Y191.38
G1 X123.58 Y192.24
G1 X123.40 Y193.10
G1 X123.21 Y193.95
G1 X123.00 Y194.80
G1 X122.79 Y195.64
G1 X122.56 Y196.47
G1 X122.31 Y197.30
G1 X122.06 Y198.12
G1 X121.78 Y198.94
G1 X121.49 Y199.74
G1 X121.19 Y200.54
G1 X121.13 Y200.69
G1 X121.07 Y200.83
G1 X121.01 Y200.98
G1 X120.94 Y201.13
G1 X120.88 Y201.27
G1 X120.82 Y201.42
G1 X120.75 Y201.56
G1 X120.69 Y201.71
G1 X120.62 Y201.85
G1 X120.56 Y201.99
G1 X120.49 Y202.14
G1 X120.42 Y202.28
G1 X120.36 Y202.42
G1 X120.29 Y202.57
G1 X120.22 Y202.71
G1 X120.16 Y202.85
G1 X120.09 Y203.00
G1 X120.03 Y203.14
G1 X119.96 Y203.28
G1 X119.89 Y203.43
G1 X119.65 Y203.91
G1 X119.39 Y204.39
G1 X119.13 Y204.86
G1 X118.86 Y205.33
G1 X118.59 Y205.78
G1 X118.30 Y206.23
G1 X118.01 Y206.67
G1 X117.72 Y207.10
G1 X117.41 Y207.52
G1 X117.10 Y207.93
G1 X116.78 Y208.33
G1 X116.46 Y208.72
G1 X116.12 Y209.10
G1 X115.78 Y209.47
G1 X115.43 Y209.83
G1 X115.08 Y210.18
G1 X114.71 Y210.51
G1 X114.34 Y210.83
G1 X113.96 Y211.14
G1 X113.58 Y211.44
G1 X112.58 Y212.18
G1 X111.72 Y212.84
G1 X110.98 Y213.42
G1 X110.35 Y213.92
G1 X109.81 Y214.35
G1 X109.36 Y214.73
G1 X108.97 Y215.04
G1 X108.65 Y215.31
G1 X108.38 Y215.54
G1 X108.14 Y215.72
G1 X107.92 Y215.88
G1 X107.71 Y216.01
G1 X107.50 Y216.13
G1 X107.27 Y216.23
G1 X107.02 Y216.33
G1 X106.73 Y216.43
G1 X106.39 Y216.53
G1 X105.98 Y216.65
G1 X105.50 Y216.79
G1 X104.93 Y216.96
G1 X104.85 Y216.95
G1 X104.78 Y216.95
G1 X104.70 Y216.95
G1 X104.62 Y216.94
G1 X104.55 Y216.94
G1 X104.47 Y216.94
G1 X104.39 Y216.94
G1 X104.32 Y216.94
G1 X104.24 Y216.94
G1 X104.17 Y216.93
G1 X104.09 Y216.93
G1 X104.01 Y216.93
G1 X103.94 Y216.92
G1 X103.86 Y216.92
G1 X103.78 Y216.91
G1 X103.71 Y216.90
G1 X103.63 Y216.89
G1 X103.56 Y216.87
G1 X103.48 Y216.86
G1 X103.41 Y216.84
G1 X103.18 Y216.77
G1 X102.95 Y216.68
G1 X102.73 Y216.59
G1 X102.51 Y216.47
G1 X102.29 Y216.35
G1 X102.08 Y216.22
G1 X101.88 Y216.07
G1 X101.68 Y215.91
G1 X101.48 Y215.74
G1 X101.29 Y215.56
G1 X101.11 Y215.38
G1 X100.93 Y215.18
G1 X100.76 Y214.97
G1 X100.59 Y214.76
G1 X100.43 Y214.54
G1 X100.27 Y214.31
G1 X100.12 Y214.07
G1 X99.98 Y213.83
G1 X99.84 Y213.58
G1 X99.71 Y213.32
G1 X99.66 Y213.22
G1 X99.62 Y213.13
G1 X99.57 Y213.03
G1 X99.52 Y212.93
G1 X99.48 Y212.83
G1 X99.43 Y212.74
G1 X99.39 Y212.63
G1 X99.35 Y212.53
G1 X99.30 Y212.43
G1 X99.26 Y212.33
G1 X99.22 Y212.23
G1 X99.18 Y212.13
G1 X99.15 Y212.02
G1 X99.11 Y211.92
G1 X99.08 Y211.81
G1 X99.05 Y211.71
G1 X99.01 Y211.60
G1 X98.99 Y211.49
G1 X98.96 Y211.38
G1 X98.93 Y211.27
G1 X98.91 Y211.14
G1 X98.88 Y211.00
G1 X98.86 Y210.86
G1 X98.84 Y210.72
G1 X98.82 Y210.58
G1 X98.81 Y210.44
G1 X98.80 Y210.30
G1 X98.78 Y210.16
G1 X98.77 Y210.01
G1 X98.76 Y209.87
G1 X98.76 Y209.73
G1 X98.75 Y209.59
G1 X98.74 Y209.44
G1 X98.73 Y209.30
G1 X98.72 Y209.16
G1 X98.72 Y209.02
G1 X98.71 Y208.87
G1 X98.70 Y208.73
G1 X98.69 Y208.59
G1 X98.67 Y208.45
G1 X98.68 Y208.30
G1 X98.69 Y208.15
G1 X98.70 Y208.00
G1 X98.70 Y207.85
G1 X98.71 Y207.70
G1 X98.71 Y207.54
G1 X98.72 Y207.39
G1 X98.72 Y207.24
G1 X98.73 Y207.09
G1 X98.73 Y206.94
G1 X98.74 Y206.79
G1 X98.75 Y206.64
G1 X98.76 Y206.49
G1 X98.77 Y206.34
G1 X98.78 Y206.19
