; SVG width: 1000.0
; SVG height: 800.0
; User scale factor: 1.0
; User offset: X0.000 Y0.000
; H.Airbrush Dual-Airbrush Plotter G-code
; Generated by H.Airbrush Extension
G90 ; Set absolute positioning
G21 ; Set units to millimeters
G17 ; Set working plane to X-Y (G17 = X-Y, G18 = X-Z, G19 = Y-Z)
G28 ; Home all axes
G92 X0 Y0 Z0 ; Set current position as origin
M84 S0 ; Disable stepper timeout
; Coordinate system: X right, Y forward, Z up

; Source SVG: tmpt397egnu.svg
; Paths: 30
; Base Z height: 2.0mm
; Base feedrate: 100mm/min
; Simplification: No
; Curve resolution: 20
; Debug markers: Yes

; Path 1/30 (id: path1)
; AIRBRUSH PHYSICS: z_density=0.012, req_opacity=1.000
; WIDTH: requested=3.02mm, actual=3.02mm, compensation=1.000
; ===== STROKE PARAMETERS =====
; Color: #000000
; Width: 3.02mm
; Opacity: 0.51
; Brush: brush_a (index 0)
; ===== AIRBRUSH SETTINGS =====
; Z-height: 11.46mm
; Paint flow: 1.00
; Feedrate: 20mm/min (factor: 0.20)
; Path with Brush A (black) at Z=11.46mm
G0 Z10.00 F3000
G0 X228.90 Y301.90 F3000
G1 Z11.46 F1500
M42 P0 S1 ; Air on
M280 P0 S180 ; Trigger
G1 F19.999999999999996
G1 X230.73 Y296.87
G1 X232.29 Y292.08
G1 X233.60 Y287.53
G1 X234.65 Y283.22
G1 X235.44 Y279.14
G1 X235.97 Y275.31
G1 X236.24 Y271.71
G1 X236.25 Y268.36
G1 X236.00 Y265.24
G1 X235.49 Y262.35
G1 X234.72 Y259.71
G1 X233.69 Y257.31
G1 X232.40 Y255.14
G1 X230.85 Y253.21
G1 X229.04 Y251.52
G1 X226.97 Y250.07
G1 X224.64 Y248.86
G1 X222.05 Y247.88
G1 X219.21 Y247.15
G1 X216.10 Y246.65
G1 X217.17 Y249.31
G1 X218.25 Y251.96
G1 X219.32 Y254.61
G1 X220.41 Y257.25
G1 X221.49 Y259.89
G1 X222.57 Y262.52
G1 X223.66 Y265.15
G1 X224.75 Y267.78
G1 X225.85 Y270.40
G1 X226.95 Y273.01
G1 X228.04 Y275.62
G1 X229.15 Y278.23
G1 X230.25 Y280.83
G1 X231.36 Y283.43
G1 X232.47 Y286.02
G1 X233.58 Y288.61
G1 X234.70 Y291.19
G1 X235.81 Y293.77
G1 X236.94 Y296.35
G1 X238.06 Y298.92
G1 X237.43 Y298.88
G1 X237.01 Y299.11
G1 X236.80 Y299.61
G1 X236.80 Y300.37
G1 X237.01 Y301.39
G1 X237.42 Y302.69
G1 X238.04 Y304.25
G1 X238.87 Y306.07
G1 X239.91 Y308.17
G1 X241.16 Y310.53
G1 X242.61 Y313.15
G1 X244.27 Y316.04
G1 X246.15 Y319.20
G1 X248.22 Y322.62
G1 X250.51 Y326.31
G1 X253.01 Y330.26
G1 X255.71 Y334.48
G1 X258.62 Y338.97
G1 X261.74 Y343.72
G1 X265.07 Y348.74
G1 X264.75 Y351.42
G1 X264.24 Y354.01
G1 X263.55 Y356.54
G1 X262.68 Y358.98
G1 X261.62 Y361.35
G1 X260.38 Y363.63
G1 X258.96 Y365.84
G1 X257.36 Y367.98
G1 X255.57 Y370.03
G1 X253.60 Y372.01
G1 X251.44 Y373.91
G1 X249.11 Y375.74
G1 X246.59 Y377.48
G1 X243.89 Y379.15
G1 X241.00 Y380.74
G1 X237.93 Y382.26
G1 X234.68 Y383.69
G1 X231.25 Y385.05
G1 X227.63 Y386.33
G1 X223.83 Y387.54
G1 X223.29 Y383.21
G1 X222.90 Y379.05
G1 X222.66 Y375.07
G1 X222.58 Y371.26
G1 X222.64 Y367.62
G1 X222.86 Y364.15
G1 X223.23 Y360.86
G1 X223.75 Y357.74
G1 X224.41 Y354.79
G1 X225.24 Y352.01
G1 X226.21 Y349.41
G1 X227.33 Y346.98
G1 X228.60 Y344.72
G1 X230.03 Y342.64
G1 X231.61 Y340.72
G1 X233.33 Y338.98
G1 X235.21 Y337.42
G1 X237.24 Y336.02
G1 X239.42 Y334.80
G1 X241.75 Y333.75
G1 X243.58 Y335.74
G1 X245.25 Y337.82
G1 X246.75 Y339.99
G1 X248.09 Y342.24
G1 X249.27 Y344.58
G1 X250.29 Y347.01
G1 X251.15 Y349.53
G1 X251.85 Y352.13
G1 X252.38 Y354.82
G1 X252.75 Y357.60
G1 X252.96 Y360.46
G1 X253.01 Y363.42
G1 X252.90 Y366.45
G1 X252.62 Y369.58
G1 X252.19 Y372.79
G1 X251.59 Y376.09
G1 X250.83 Y379.48
G1 X249.91 Y382.95
G1 X248.82 Y386.51
G1 X247.58 Y390.16
G1 X247.43 Y390.66
G1 X247.50 Y391.32
G1 X247.81 Y392.13
G1 X248.34 Y393.10
G1 X249.09 Y394.23
G1 X250.08 Y395.51
G1 X251.29 Y396.96
G1 X252.73 Y398.56
G1 X254.40 Y400.32
G1 X256.29 Y402.24
G1 X258.42 Y404.31
G1 X260.76 Y406.54
G1 X263.34 Y408.94
G1 X266.14 Y411.48
G1 X269.17 Y414.19
G1 X272.43 Y417.05
G1 X275.92 Y420.07
G1 X279.63 Y423.25
G1 X283.57 Y426.59
G1 X287.74 Y430.09
G1 X291.74 Y431.07
G1 X295.58 Y432.08
G1 X299.27 Y433.12
G1 X302.81 Y434.19
G1 X306.19 Y435.29
G1 X309.42 Y436.42
G1 X312.49 Y437.58
G1 X315.41 Y438.78
G1 X318.17 Y440.00
G1 X320.77 Y441.25
G1 X323.23 Y442.54
G1 X325.52 Y443.85
G1 X327.66 Y445.19
G1 X329.65 Y446.57
G1 X331.48 Y447.97
G1 X333.16 Y449.40
G1 X334.68 Y450.87
G1 X336.04 Y452.36
G1 X337.25 Y453.89
G1 X338.31 Y455.44
G1 X342.03 Y457.24
G1 X345.66 Y458.84
G1 X349.20 Y460.23
G1 X352.64 Y461.42
G1 X355.99 Y462.41
G1 X359.24 Y463.19
G1 X362.39 Y463.78
G1 X365.45 Y464.16
G1 X368.42 Y464.34
G1 X371.29 Y464.32
G1 X374.07 Y464.10
G1 X376.75 Y463.67
G1 X379.34 Y463.05
G1 X381.83 Y462.22
G1 X384.23 Y461.19
G1 X386.53 Y459.95
G1 X388.74 Y458.52
G1 X390.85 Y456.88
G1 X392.87 Y455.04
G1 X394.80 Y453.00
G1 X391.01 Y451.48
G1 X387.34 Y450.05
G1 X383.78 Y448.72
G1 X380.32 Y447.47
G1 X376.97 Y446.32
G1 X373.73 Y445.26
G1 X370.60 Y444.29
G1 X367.58 Y443.42
G1 X364.66 Y442.63
G1 X361.86 Y441.94
G1 X359.16 Y441.34
G1 X356.57 Y440.83
G1 X354.09 Y440.41
G1 X351.71 Y440.09
G1 X349.45 Y439.85
G1 X347.29 Y439.71
G1 X345.24 Y439.67
G1 X343.30 Y439.71
G1 X341.47 Y439.84
G1 X339.75 Y440.07
G1 X340.67 Y437.88
G1 X341.43 Y435.62
G1 X342.01 Y433.31
G1 X342.43 Y430.94
G1 X342.68 Y428.51
G1 X342.75 Y426.02
G1 X342.66 Y423.48
G1 X342.39 Y420.87
G1 X341.96 Y418.21
G1 X341.35 Y415.49
G1 X340.57 Y412.71
G1 X339.63 Y409.87
G1 X338.51 Y406.98
G1 X337.23 Y404.02
G1 X335.77 Y401.01
G1 X334.14 Y397.94
G1 X332.35 Y394.81
G1 X330.38 Y391.62
G1 X328.24 Y388.38
G1 X325.93 Y385.07
M280 P0 S0 ; Release trigger
M42 P0 S0 ; Air off
G0 Z10.00 F3000

; Path 2/30 (id: path2)
; AIRBRUSH PHYSICS: z_density=0.018, req_opacity=1.000
; WIDTH: requested=2.44mm, actual=2.44mm, compensation=1.000
; ===== STROKE PARAMETERS =====
; Color: #000000
; Width: 2.44mm
; Opacity: 0.55
; Brush: brush_a (index 0)
; ===== AIRBRUSH SETTINGS =====
; Z-height: 9.28mm
; Paint flow: 1.00
; Feedrate: 20mm/min (factor: 0.20)
; Path with Brush A (black) at Z=9.28mm
G0 Z10.00 F3000
G0 X742.60 Y308.38 F3000
G1 Z9.28 F1500
M42 P0 S1 ; Air on
M280 P0 S180 ; Trigger
G1 F19.999999999999996
G1 X739.93 Y310.18
G1 X737.53 Y312.09
G1 X735.39 Y314.12
G1 X733.52 Y316.24
G1 X731.91 Y318.48
G1 X730.57 Y320.82
G1 X729.49 Y323.28
G1 X728.67 Y325.84
G1 X728.11 Y328.51
G1 X727.82 Y331.29
G1 X727.80 Y334.17
G1 X728.03 Y337.16
G1 X728.53 Y340.27
G1 X729.30 Y343.48
G1 X730.33 Y346.79
G1 X731.62 Y350.22
G1 X733.18 Y353.75
G1 X735.00 Y357.40
G1 X737.08 Y361.15
G1 X739.43 Y365.00
G1 X736.19 Y361.32
G1 X733.14 Y357.76
G1 X730.30 Y354.33
G1 X727.65 Y351.02
G1 X725.21 Y347.84
G1 X722.96 Y344.78
G1 X720.91 Y341.85
G1 X719.06 Y339.05
G1 X717.41 Y336.37
G1 X715.96 Y333.82
G1 X714.70 Y331.39
G1 X713.65 Y329.09
G1 X712.79 Y326.92
G1 X712.13 Y324.87
G1 X711.67 Y322.94
G1 X711.41 Y321.14
G1 X711.35 Y319.47
G1 X711.49 Y317.93
G1 X711.83 Y316.50
G1 X712.36 Y315.21
G1 X711.44 Y315.51
G1 X710.44 Y315.54
G1 X709.37 Y315.29
G1 X708.23 Y314.76
G1 X707.01 Y313.96
G1 X705.72 Y312.88
G1 X704.37 Y311.52
G1 X702.93 Y309.88
G1 X701.43 Y307.97
G1 X699.85 Y305.78
G1 X698.20 Y303.31
G1 X696.48 Y300.56
G1 X694.69 Y297.54
G1 X692.82 Y294.24
G1 X690.88 Y290.67
G1 X688.87 Y286.81
G1 X686.79 Y282.68
G1 X684.63 Y278.28
G1 X682.41 Y273.59
G1 X680.11 Y268.63
G1 X681.39 Y266.91
G1 X682.62 Y265.09
G1 X683.78 Y263.16
G1 X684.89 Y261.12
G1 X685.93 Y258.97
G1 X686.92 Y256.72
G1 X687.85 Y254.36
G1 X688.72 Y251.88
G1 X689.53 Y249.31
G1 X690.28 Y246.62
G1 X690.98 Y243.82
G1 X691.61 Y240.92
G1 X692.18 Y237.91
G1 X692.70 Y234.79
G1 X693.16 Y231.56
G1 X693.55 Y228.22
G1 X693.89 Y224.78
G1 X694.17 Y221.22
G1 X694.39 Y217.56
G1 X694.55 Y213.79
G1 X691.55 Y213.77
G1 X688.64 Y213.56
G1 X685.82 Y213.16
G1 X683.08 Y212.57
G1 X680.43 Y211.79
G1 X677.87 Y210.82
G1 X675.40 Y209.66
G1 X673.01 Y208.31
G1 X670.71 Y206.78
G1 X668.50 Y205.05
G1 X666.38 Y203.13
G1 X664.35 Y201.03
G1 X662.40 Y198.73
G1 X660.54 Y196.24
G1 X658.77 Y193.57
G1 X657.09 Y190.70
G1 X655.49 Y187.65
G1 X653.99 Y184.41
G1 X652.57 Y180.97
G1 X651.23 Y177.35
G1 X653.01 Y178.35
G1 X654.82 Y179.44
G1 X656.65 Y180.63
G1 X658.52 Y181.93
G1 X660.42 Y183.32
G1 X662.35 Y184.81
G1 X664.30 Y186.40
G1 X666.29 Y188.09
G1 X668.31 Y189.88
G1 X670.37 Y191.76
G1 X672.45 Y193.75
G1 X674.56 Y195.83
G1 X676.70 Y198.02
G1 X678.87 Y200.30
G1 X681.07 Y202.68
G1 X683.31 Y205.16
G1 X685.57 Y207.74
G1 X687.87 Y210.42
G1 X690.19 Y213.19
G1 X692.54 Y216.07
G1 X695.82 Y216.14
G1 X698.98 Y216.03
G1 X702.04 Y215.72
G1 X704.99 Y215.24
G1 X707.84 Y214.57
G1 X710.59 Y213.71
G1 X713.22 Y212.67
G1 X715.76 Y211.44
G1 X718.18 Y210.03
G1 X720.51 Y208.43
G1 X722.72 Y206.65
G1 X724.83 Y204.68
G1 X726.84 Y202.52
G1 X728.74 Y200.18
G1 X730.53 Y197.65
G1 X732.22 Y194.94
G1 X733.81 Y192.05
G1 X735.28 Y188.96
G1 X736.66 Y185.70
G1 X737.93 Y182.24
G1 X737.48 Y184.81
G1 X737.29 Y187.32
G1 X737.33 Y189.79
G1 X737.63 Y192.21
G1 X738.16 Y194.59
G1 X738.95 Y196.91
G1 X739.97 Y199.19
G1 X741.24 Y201.43
G1 X742.76 Y203.61
G1 X744.52 Y205.75
G1 X746.53 Y207.84
G1 X748.78 Y209.88
G1 X751.27 Y211.88
G1 X754.02 Y213.83
G1 X757.00 Y215.73
G1 X760.23 Y217.59
G1 X763.71 Y219.39
G1 X767.43 Y221.15
G1 X771.39 Y222.87
G1 X775.60 Y224.53
G1 X778.11 Y220.81
G1 X780.48 Y217.22
G1 X782.71 Y213.75
G1 X784.80 Y210.39
G1 X786.75 Y207.15
G1 X788.56 Y204.04
G1 X790.23 Y201.04
G1 X791.76 Y198.17
G1 X793.15 Y195.41
G1 X794.41 Y192.78
G1 X795.52 Y190.26
G1 X796.49 Y187.87
G1 X797.33 Y185.59
G1 X798.02 Y183.43
G1 X798.58 Y181.40
G1 X798.99 Y179.48
G1 X799.27 Y177.69
G1 X799.41 Y176.01
G1 X799.40 Y174.45
G1 X799.26 Y173.02
G1 X801.54 Y175.87
G1 X803.81 Y178.62
G1 X806.05 Y181.27
G1 X808.27 Y183.82
G1 X810.48 Y186.27
G1 X812.65 Y188.63
G1 X814.82 Y190.89
G1 X816.95 Y193.05
G1 X819.07 Y195.11
G1 X821.17 Y197.07
G1 X823.25 Y198.93
G1 X825.30 Y200.70
G1 X827.34 Y202.37
G1 X829.35 Y203.94
G1 X831.34 Y205.40
G1 X833.32 Y206.78
G1 X835.27 Y208.05
G1 X837.20 Y209.22
G1 X839.11 Y210.30
G1 X841.00 Y211.28
G1 X844.01 Y213.42
G1 X846.96 Y215.51
G1 X849.84 Y217.54
G1 X852.64 Y219.50
G1 X855.38 Y221.41
G1 X858.04 Y223.26
G1 X860.63 Y225.06
G1 X863.15 Y226.79
G1 X865.60 Y228.46
G1 X867.98 Y230.08
G1 X870.29 Y231.63
G1 X872.53 Y233.13
G1 X874.70 Y234.56
G1 X876.79 Y235.94
G1 X878.82 Y237.26
G1 X880.77 Y238.52
G1 X882.66 Y239.72
G1 X884.47 Y240.86
G1 X886.21 Y241.95
G1 X887.88 Y242.97
G1 X889.11 Y242.08
G1 X890.20 Y240.99
G1 X891.16 Y239.69
G1 X891.99 Y238.19
G1 X892.68 Y236.48
G1 X893.25 Y234.57
G1 X893.68 Y232.45
G1 X893.98 Y230.13
G1 X894.14 Y227.60
G1 X894.18 Y224.87
G1 X894.08 Y221.93
G1 X893.85 Y218.79
G1 X893.49 Y215.44
G1 X892.99 Y211.88
G1 X892.37 Y208.13
G1 X891.61 Y204.16
G1 X890.72 Y199.99
G1 X889.70 Y195.62
G1 X888.54 Y191.04
G1 X887.25 Y186.26
M280 P0 S0 ; Release trigger
M42 P0 S0 ; Air off
G0 Z10.00 F3000

; Path 3/30 (id: path3)
; AIRBRUSH PHYSICS: z_density=0.049, req_opacity=1.000
; WIDTH: requested=1.40mm, actual=1.40mm, compensation=1.000
; ===== STROKE PARAMETERS =====
; Color: #000000
; Width: 1.40mm
; Opacity: 0.21
; Brush: brush_a (index 0)
; ===== AIRBRUSH SETTINGS =====
; Z-height: 5.32mm
; Paint flow: 1.00
; Feedrate: 20mm/min (factor: 0.20)
; Path with Brush A (black) at Z=5.32mm
G0 Z10.00 F3000
G0 X588.33 Y637.33 F3000
G1 Z5.32 F1500
M42 P0 S1 ; Air on
M280 P0 S180 ; Trigger
G1 F19.999999999999996
G1 X584.83 Y635.11
G1 X581.41 Y633.06
G1 X578.06 Y631.18
G1 X574.80 Y629.49
G1 X571.61 Y627.96
G1 X568.49 Y626.61
G1 X565.45 Y625.44
G1 X562.49 Y624.44
G1 X559.60 Y623.62
G1 X556.79 Y622.97
G1 X554.06 Y622.49
G1 X551.41 Y622.19
G1 X548.83 Y622.07
G1 X546.32 Y622.12
G1 X543.90 Y622.35
G1 X541.54 Y622.75
G1 X539.27 Y623.32
G1 X537.07 Y624.07
G1 X534.95 Y625.00
G1 X532.91 Y626.10
G1 X532.65 Y629.87
G1 X532.25 Y633.48
G1 X531.71 Y636.95
G1 X531.03 Y640.27
G1 X530.21 Y643.43
G1 X529.25 Y646.45
G1 X528.15 Y649.32
G1 X526.91 Y652.04
G1 X525.53 Y654.61
G1 X524.01 Y657.03
G1 X522.36 Y659.30
G1 X520.55 Y661.42
G1 X518.61 Y663.39
G1 X516.53 Y665.21
G1 X514.31 Y666.88
G1 X511.95 Y668.40
G1 X509.45 Y669.77
G1 X506.81 Y671.00
G1 X504.02 Y672.07
G1 X501.10 Y672.99
G1 X502.95 Y675.25
G1 X504.63 Y677.56
G1 X506.14 Y679.93
G1 X507.49 Y682.37
G1 X508.68 Y684.86
G1 X509.70 Y687.41
G1 X510.55 Y690.02
G1 X511.24 Y692.70
G1 X511.76 Y695.43
G1 X512.12 Y698.22
G1 X512.32 Y701.07
G1 X512.34 Y703.99
G1 X512.21 Y706.96
G1 X511.90 Y709.99
G1 X511.44 Y713.08
G1 X510.80 Y716.23
G1 X510.00 Y719.44
G1 X509.04 Y722.72
G1 X507.91 Y726.05
G1 X506.62 Y729.44
G1 X507.35 Y726.52
G1 X507.96 Y723.62
G1 X508.45 Y720.73
G1 X508.83 Y717.85
G1 X509.10 Y714.98
G1 X509.25 Y712.12
G1 X509.28 Y709.27
G1 X509.19 Y706.43
G1 X508.99 Y703.61
G1 X508.67 Y700.79
G1 X508.24 Y697.99
G1 X507.69 Y695.19
G1 X507.02 Y692.41
G1 X506.24 Y689.63
G1 X505.33 Y686.87
G1 X504.32 Y684.12
G1 X503.19 Y681.38
G1 X501.94 Y678.65
G1 X500.57 Y675.93
G1 X499.09 Y673.23
G1 X500.19 Y673.97
G1 X501.43 Y674.48
G1 X502.80 Y674.76
G1 X504.32 Y674.81
G1 X505.98 Y674.63
G1 X507.78 Y674.22
G1 X509.72 Y673.58
G1 X511.80 Y672.71
G1 X514.02 Y671.61
G1 X516.38 Y670.28
G1 X518.89 Y668.72
G1 X521.53 Y666.93
G1 X524.31 Y664.91
G1 X527.24 Y662.65
G1 X530.30 Y660.17
G1 X533.50 Y657.46
G1 X536.85 Y654.51
G1 X540.33 Y651.34
G1 X543.96 Y647.93
G1 X547.72 Y644.30
G1 X546.80 Y644.21
G1 X545.67 Y644.12
G1 X544.35 Y644.01
G1 X542.82 Y643.89
G1 X541.10 Y643.76
G1 X539.18 Y643.62
G1 X537.05 Y643.48
G1 X534.73 Y643.32
G1 X532.21 Y643.15
G1 X529.49 Y642.97
G1 X526.57 Y642.78
G1 X523.45 Y642.59
G1 X520.13 Y642.38
G1 X516.61 Y642.16
G1 X512.89 Y641.93
G1 X508.97 Y641.69
G1 X504.85 Y641.44
G1 X500.54 Y641.18
G1 X496.02 Y640.91
G1 X491.30 Y640.64
G1 X494.23 Y638.48
G1 X496.99 Y636.29
G1 X499.59 Y634.07
G1 X502.03 Y631.81
G1 X504.30 Y629.52
G1 X506.41 Y627.20
G1 X508.36 Y624.84
G1 X510.15 Y622.45
G1 X511.77 Y620.02
G1 X513.23 Y617.56
G1 X514.53 Y615.07
G1 X515.66 Y612.54
G1 X516.64 Y609.99
G1 X517.45 Y607.39
G1 X518.09 Y604.76
G1 X518.58 Y602.11
G1 X518.90 Y599.41
G1 X519.06 Y596.68
G1 X519.05 Y593.92
G1 X518.89 Y591.13
G1 X516.87 Y591.52
G1 X515.11 Y592.17
G1 X513.61 Y593.07
G1 X512.38 Y594.22
G1 X511.40 Y595.63
G1 X510.68 Y597.29
G1 X510.22 Y599.20
G1 X510.02 Y601.37
G1 X510.08 Y603.79
G1 X510.40 Y606.46
G1 X510.98 Y609.39
G1 X511.81 Y612.57
G1 X512.91 Y616.00
G1 X514.27 Y619.69
G1 X515.89 Y623.63
G1 X517.77 Y627.82
G1 X519.90 Y632.27
G1 X522.30 Y636.97
G1 X524.96 Y641.92
G1 X527.87 Y647.12
G1 X523.77 Y643.79
G1 X519.84 Y640.67
G1 X516.06 Y637.78
G1 X512.45 Y635.11
G1 X509.00 Y632.66
G1 X505.72 Y630.44
G1 X502.60 Y628.44
G1 X499.64 Y626.67
G1 X496.84 Y625.11
G1 X494.21 Y623.78
G1 X491.74 Y622.67
G1 X489.43 Y621.79
G1 X487.28 Y621.13
G1 X485.30 Y620.69
G1 X483.48 Y620.47
G1 X481.82 Y620.48
G1 X480.33 Y620.71
G1 X479.00 Y621.16
G1 X477.83 Y621.84
G1 X476.83 Y622.74
M280 P0 S0 ; Release trigger
M42 P0 S0 ; Air off
G0 Z10.00 F3000

; Path 4/30 (id: path4)
; AIRBRUSH PHYSICS: z_density=0.008, req_opacity=1.000
; WIDTH: requested=4.64mm, actual=3.95mm, compensation=1.174
; ===== STROKE PARAMETERS =====
; Color: #000000
; Width: 4.64mm
; Opacity: 0.62
; Brush: brush_a (index 0)
; ===== AIRBRUSH SETTINGS =====
; Z-height: 15.00mm
; Paint flow: 1.00
; Feedrate: 23mm/min (factor: 0.23)
; Path with Brush A (black) at Z=15.00mm
G0 Z10.00 F3000
G0 X409.01 Y152.00 F3000
G1 Z15.00 F1500
M42 P0 S1 ; Air on
M280 P0 S180 ; Trigger
G1 F23.472855104390025
G1 X411.22 Y152.48
G1 X413.47 Y153.00
G1 X415.77 Y153.57
G1 X418.13 Y154.17
G1 X420.54 Y154.81
G1 X423.00 Y155.49
G1 X425.51 Y156.22
G1 X428.07 Y156.98
G1 X430.68 Y157.78
G1 X433.35 Y158.62
G1 X436.07 Y159.51
